(G-CODE GENERATED BY FLATCAM v8.994 - www.flatcam.org - Version Date: 2020/11/7)

(Name: VacHoseSwitchingBox_PCB_copperBottom.gbl_iso_combined_cnc)
(Type: G-code from Geometry)
(Units: MM)

(Created on Saturday, 05 June 2021 at 14:16)

(This preprocessor is the default preprocessor used by FlatCAM.)
(It is made to work with MACH3 compatible motion controllers.)

(TOOL DIAMETER: 0.4058 mm)
(Feedrate_XY: 200.0 mm/min)
(Feedrate_Z: 60.0 mm/min)
(Feedrate rapids 1500.0 mm/min)

(Z_Cut: -0.3 mm)
(Z_Move: 2.0 mm)
(Z Start: None mm)
(Z End: 15.0 mm)
(X,Y End: None mm)
(Steps per circle: 64)
(Preprocessor Geometry: default)

(X range:    4.2672 ...   69.8500  mm)
(Y range:    1.1938 ...   65.8149  mm)

(Spindle Speed: 10000.0 RPM)
G21
G90
G94

G01 F200.00

M5
G00 Z15.0000
G00 X0.0000 Y0.0000
T1
M6    
(MSG, Change to Tool Dia = 0.4058)
M0
G00 Z15.0000

M03 S10000.0
G01 F200.00
G00 X11.4203 Y5.7267
G01 F60.00
G01 Z-0.3000
G01 F200.00
G01 X11.2279 Y2.0491
G01 X11.2268 Y2.0066
G01 X11.2275 Y1.9880
G01 X11.2275 Y1.9743
G01 X11.2303 Y1.9319
G01 X11.2313 Y1.9220
G01 X11.2332 Y1.9084
G01 X11.2352 Y1.8899
G01 X11.2424 Y1.8480
G01 X11.2505 Y1.8116
G01 X11.2564 Y1.7912
G01 X11.2604 Y1.7754
G01 X11.2752 Y1.7305
G01 X11.2813 Y1.7155
G01 X11.2887 Y1.6956
G01 X11.3037 Y1.6614
G01 X11.3228 Y1.6234
G01 X11.3322 Y1.6073
G01 X11.3386 Y1.5953
G01 X11.3611 Y1.5592
G01 X11.3666 Y1.5509
G01 X11.3747 Y1.5399
G01 X11.3852 Y1.5245
G01 X11.4113 Y1.4910
G01 X11.4356 Y1.4627
G01 X11.4504 Y1.4474
G01 X11.4614 Y1.4354
G01 X11.4918 Y1.4061
G01 X11.5081 Y1.3924
G01 X11.5202 Y1.3815
G01 X11.5574 Y1.3524
G01 X11.5708 Y1.3432
G01 X11.5880 Y1.3308
G01 X11.6195 Y1.3108
G01 X11.6564 Y1.2898
G01 X11.6732 Y1.2816
G01 X11.6853 Y1.2751
G01 X11.7240 Y1.2576
G01 X11.7332 Y1.2538
G01 X11.7460 Y1.2492
G01 X11.7633 Y1.2422
G01 X11.8037 Y1.2288
G01 X11.8396 Y1.2188
G01 X11.8604 Y1.2143
G01 X11.8762 Y1.2104
G01 X11.9227 Y1.2023
G01 X11.9389 Y1.2006
G01 X11.9599 Y1.1977
G01 X11.9785 Y1.1966
G01 X11.9922 Y1.1952
G01 X12.0396 Y1.1938
G01 X46.0896 Y1.1940
G01 X46.1503 Y1.1973
G01 X46.1642 Y1.1986
G01 X46.2244 Y1.2077
G01 X46.2430 Y1.2112
G01 X46.3019 Y1.2261
G01 X46.3202 Y1.2315
G01 X46.3820 Y1.2538
G01 X46.4040 Y1.2633
G01 X46.4543 Y1.2875
G01 X46.4667 Y1.2941
G01 X46.5230 Y1.3281
G01 X46.5427 Y1.3417
G01 X46.5873 Y1.3752
G01 X46.6057 Y1.3906
G01 X46.6503 Y1.4319
G01 X46.6601 Y1.4419
G01 X46.6974 Y1.4834
G01 X46.7096 Y1.4980
G01 X49.8940 Y5.4673
G01 X49.9062 Y5.4655
G01 X49.9211 Y5.4643
G01 X50.0634 Y5.4575
G01 X50.2156 Y5.4650
G01 X50.3664 Y5.4873
G01 X50.5046 Y5.5217
G01 X50.5236 Y5.5275
G01 X50.6484 Y5.5721
G01 X50.6668 Y5.5797
G01 X50.7954 Y5.6409
G01 X50.9177 Y5.7139
G01 X50.9343 Y5.7249
G01 X51.0485 Y5.8100
G01 X51.1542 Y5.9055
G01 X51.1649 Y5.9159
G01 X51.2638 Y6.0253
G01 X51.3546 Y6.1477
G01 X51.4329 Y6.2784
G01 X51.4981 Y6.4161
G01 X51.5494 Y6.5596
G01 X51.5865 Y6.7074
G01 X51.6088 Y6.8582
G01 X51.6161 Y7.0004
G01 X51.6162 Y7.0154
G01 X51.6088 Y7.1626
G01 X51.5882 Y7.3035
G01 X51.5843 Y7.3231
G01 X51.5494 Y7.4612
G01 X51.5017 Y7.5954
G01 X51.4941 Y7.6138
G01 X51.4329 Y7.7424
G01 X51.3599 Y7.8647
G01 X51.3489 Y7.8813
G01 X51.2638 Y7.9955
G01 X51.1683 Y8.1012
G01 X51.1542 Y8.1153
G01 X51.0485 Y8.2108
G01 X50.9343 Y8.2959
G01 X50.9177 Y8.3069
G01 X50.7954 Y8.3799
G01 X50.6668 Y8.4411
G01 X50.6484 Y8.4487
G01 X50.5142 Y8.4964
G01 X50.3664 Y8.5335
G01 X50.2255 Y8.5546
G01 X50.2057 Y8.5565
G01 X50.0634 Y8.5633
G01 X49.9211 Y8.5565
G01 X49.9013 Y8.5546
G01 X49.7604 Y8.5335
G01 X49.6222 Y8.4991
G01 X49.6032 Y8.4933
G01 X49.4691 Y8.4451
G01 X49.3403 Y8.3844
G01 X49.3227 Y8.3750
G01 X49.2091 Y8.3069
G01 X49.1966 Y8.2988
G01 X49.0783 Y8.2108
G01 X48.9726 Y8.1153
G01 X48.9585 Y8.1012
G01 X48.8695 Y8.0031
G01 X48.8569 Y7.9877
G01 X48.7722 Y7.8731
G01 X48.6939 Y7.7424
G01 X48.6287 Y7.6047
G01 X48.5789 Y7.4659
G01 X48.5747 Y7.4516
G01 X48.5425 Y7.3231
G01 X48.5386 Y7.3035
G01 X48.5180 Y7.1626
G01 X48.5107 Y7.0204
G01 X48.5106 Y7.0054
G01 X48.5180 Y6.8582
G01 X48.5394 Y6.7123
G01 X48.5425 Y6.6977
G01 X48.5760 Y6.5644
G01 X48.5805 Y6.5502
G01 X48.6108 Y6.4655
G01 X45.6856 Y2.8194
G01 X12.8960 Y2.8194
G01 X13.0442 Y5.6517
G01 X13.1563 Y5.7192
G01 X13.2709 Y5.8039
G01 X13.2863 Y5.8165
G01 X13.3917 Y5.9123
G01 X13.4875 Y6.0177
G01 X13.5001 Y6.0331
G01 X13.5848 Y6.1477
G01 X13.6582 Y6.2697
G01 X13.6676 Y6.2873
G01 X13.7283 Y6.4161
G01 X13.7765 Y6.5502
G01 X13.7823 Y6.5692
G01 X13.8167 Y6.7074
G01 X13.8378 Y6.8483
G01 X13.8397 Y6.8681
G01 X13.8465 Y7.0104
G01 X13.8397 Y7.1527
G01 X13.8378 Y7.1725
G01 X13.8167 Y7.3134
G01 X13.7823 Y7.4516
G01 X13.7765 Y7.4706
G01 X13.7283 Y7.6047
G01 X13.6676 Y7.7335
G01 X13.6582 Y7.7511
G01 X13.5848 Y7.8731
G01 X13.5001 Y7.9877
G01 X13.4875 Y8.0031
G01 X13.3917 Y8.1085
G01 X13.2863 Y8.2043
G01 X13.2709 Y8.2169
G01 X13.1563 Y8.3016
G01 X13.0592 Y8.3601
G01 X12.8644 Y14.6390
G01 X17.9677 Y18.8641
G01 X18.0594 Y18.8598
G01 X18.1627 Y18.8646
G01 X18.1825 Y18.8666
G01 X18.2750 Y18.8803
G01 X18.2945 Y18.8842
G01 X18.3948 Y18.9096
G01 X18.5016 Y18.9478
G01 X18.5952 Y18.9918
G01 X18.6127 Y19.0011
G01 X18.7013 Y19.0545
G01 X18.7845 Y19.1159
G01 X18.7999 Y19.1286
G01 X18.8764 Y19.1982
G01 X18.9460 Y19.2747
G01 X18.9556 Y19.2861
G01 X19.0201 Y19.3733
G01 X19.0735 Y19.4619
G01 X19.0828 Y19.4794
G01 X19.1268 Y19.5730
G01 X19.1650 Y19.6798
G01 X19.1904 Y19.7801
G01 X19.1943 Y19.7996
G01 X19.2092 Y19.9020
G01 X19.2146 Y20.0052
G01 X19.2146 Y20.0252
G01 X19.2092 Y20.1284
G01 X19.1926 Y20.2406
G01 X19.1677 Y20.3410
G01 X19.1619 Y20.3601
G01 X19.1268 Y20.4574
G01 X19.0828 Y20.5510
G01 X19.0735 Y20.5685
G01 X19.0201 Y20.6571
G01 X18.9587 Y20.7403
G01 X18.9460 Y20.7557
G01 X18.8764 Y20.8322
G01 X18.7999 Y20.9018
G01 X18.7845 Y20.9145
G01 X18.7094 Y20.9701
G01 X18.6929 Y20.9812
G01 X18.6041 Y21.0342
G01 X18.5107 Y21.0786
G01 X18.4923 Y21.0862
G01 X18.3948 Y21.1208
G01 X18.2848 Y21.1484
G01 X18.1825 Y21.1638
G01 X18.1627 Y21.1658
G01 X18.0694 Y21.1704
G01 X18.0544 Y21.1705
G01 X17.9462 Y21.1650
G01 X17.8340 Y21.1484
G01 X17.7240 Y21.1208
G01 X17.6265 Y21.0862
G01 X17.6081 Y21.0786
G01 X17.5236 Y21.0386
G01 X17.5061 Y21.0293
G01 X17.4175 Y20.9759
G01 X17.3343 Y20.9145
G01 X17.3226 Y20.9051
G01 X17.2424 Y20.8322
G01 X17.1663 Y20.7482
G01 X17.0987 Y20.6571
G01 X17.0453 Y20.5685
G01 X17.0381 Y20.5554
G01 X16.9920 Y20.4574
G01 X16.9569 Y20.3601
G01 X16.9524 Y20.3458
G01 X16.9284 Y20.2503
G01 X16.9253 Y20.2357
G01 X16.9101 Y20.1334
G01 X16.9091 Y20.1235
G01 X16.9078 Y20.0970
G01 X11.5175 Y15.6343
G01 X11.5010 Y15.6201
G01 X11.4837 Y15.6034
G01 X11.4659 Y15.5872
G01 X11.4473 Y15.5680
G01 X11.4123 Y15.5282
G01 X11.3926 Y15.5033
G01 X11.3788 Y15.4836
G01 X11.3646 Y15.4642
G01 X11.3528 Y15.4460
G01 X11.3475 Y15.4375
G01 X11.3357 Y15.4166
G01 X11.3235 Y15.3958
G01 X11.3091 Y15.3676
G01 X11.2994 Y15.3456
G01 X11.2893 Y15.3238
G01 X11.2777 Y15.2943
G01 X11.2608 Y15.2440
G01 X11.2536 Y15.2183
G01 X11.2417 Y15.1665
G01 X11.2371 Y15.1402
G01 X11.2343 Y15.1164
G01 X11.2309 Y15.0925
G01 X11.2290 Y15.0709
G01 X11.2284 Y15.0610
G01 X11.2279 Y15.0369
G01 X11.2268 Y15.0129
G01 X11.2272 Y14.9862
G01 X11.4346 Y8.3040
G01 X11.4227 Y8.2959
G01 X11.3085 Y8.2108
G01 X11.2028 Y8.1153
G01 X11.1887 Y8.1012
G01 X11.0932 Y7.9955
G01 X11.0081 Y7.8813
G01 X10.9971 Y7.8647
G01 X10.9241 Y7.7424
G01 X10.8629 Y7.6138
G01 X10.8553 Y7.5954
G01 X10.8076 Y7.4612
G01 X10.7727 Y7.3231
G01 X10.7688 Y7.3035
G01 X10.7482 Y7.1626
G01 X10.7409 Y7.0204
G01 X10.7408 Y7.0054
G01 X10.7475 Y6.8681
G01 X10.7494 Y6.8483
G01 X10.7705 Y6.7074
G01 X10.8049 Y6.5692
G01 X10.8107 Y6.5502
G01 X10.8589 Y6.4161
G01 X10.9241 Y6.2784
G01 X11.0024 Y6.1477
G01 X11.0871 Y6.0331
G01 X11.0997 Y6.0177
G01 X11.1887 Y5.9196
G01 X11.2028 Y5.9055
G01 X11.3085 Y5.8100
G01 X11.4203 Y5.7267
G00 Z2.0000
G00 X15.7865 Y5.7848
G01 F60.00
G01 Z-0.3000
G01 F200.00
G01 X16.2798 Y3.7924
G01 X16.2910 Y3.7519
G01 X16.3028 Y3.7160
G01 X16.3179 Y3.6768
G01 X16.3331 Y3.6423
G01 X16.3544 Y3.6003
G01 X16.3615 Y3.5884
G01 X16.3705 Y3.5718
G01 X16.3820 Y3.5542
G01 X16.3903 Y3.5404
G01 X16.4146 Y3.5054
G01 X16.4437 Y3.4684
G01 X16.4530 Y3.4580
G01 X16.4651 Y3.4436
G01 X16.4797 Y3.4285
G01 X16.4906 Y3.4166
G01 X16.5213 Y3.3870
G01 X16.5571 Y3.3564
G01 X16.5682 Y3.3481
G01 X16.5829 Y3.3363
G01 X16.6002 Y3.3243
G01 X16.6131 Y3.3148
G01 X16.6491 Y3.2918
G01 X16.6901 Y3.2687
G01 X16.7026 Y3.2627
G01 X16.7193 Y3.2540
G01 X16.7386 Y3.2456
G01 X16.7532 Y3.2388
G01 X16.7929 Y3.2233
G01 X16.8376 Y3.2086
G01 X16.8511 Y3.2052
G01 X16.8692 Y3.1999
G01 X16.8898 Y3.1955
G01 X16.9054 Y3.1916
G01 X16.9474 Y3.1841
G01 X16.9891 Y3.1789
G01 X17.0267 Y3.1761
G01 X17.0688 Y3.1750
G01 X43.0784 Y3.1750
G01 X43.1145 Y3.1758
G01 X43.1363 Y3.1776
G01 X43.1531 Y3.1785
G01 X43.1939 Y3.1832
G01 X43.2418 Y3.1916
G01 X43.2545 Y3.1948
G01 X43.2722 Y3.1984
G01 X43.2932 Y3.2045
G01 X43.3096 Y3.2086
G01 X43.3533 Y3.2230
G01 X43.3690 Y3.2293
G01 X43.3894 Y3.2369
G01 X43.4225 Y3.2514
G01 X43.4616 Y3.2710
G01 X43.4772 Y3.2800
G01 X43.4887 Y3.2862
G01 X43.5258 Y3.3093
G01 X43.5341 Y3.3148
G01 X43.5446 Y3.3225
G01 X43.5595 Y3.3327
G01 X43.5940 Y3.3595
G01 X43.6214 Y3.3830
G01 X43.6371 Y3.3982
G01 X43.6496 Y3.4096
G01 X43.6814 Y3.4429
G01 X43.6922 Y3.4558
G01 X43.7067 Y3.4722
G01 X43.7290 Y3.5006
G01 X52.2357 Y14.8597
G01 X52.2856 Y14.8671
G01 X52.3003 Y14.8698
G01 X52.3958 Y14.8937
G01 X52.4101 Y14.8979
G01 X52.5122 Y14.9346
G01 X52.6058 Y14.9786
G01 X52.6190 Y14.9854
G01 X52.7119 Y15.0413
G01 X52.8030 Y15.1089
G01 X52.8870 Y15.1850
G01 X52.9566 Y15.2615
G01 X52.9693 Y15.2769
G01 X53.0249 Y15.3520
G01 X53.0360 Y15.3685
G01 X53.0890 Y15.4573
G01 X53.1334 Y15.5507
G01 X53.1410 Y15.5691
G01 X53.1756 Y15.6666
G01 X53.2032 Y15.7766
G01 X53.2198 Y15.8888
G01 X53.2252 Y15.9920
G01 X53.2252 Y16.0120
G01 X53.2198 Y16.1152
G01 X53.2049 Y16.2176
G01 X53.2010 Y16.2371
G01 X53.1770 Y16.3326
G01 X53.1725 Y16.3469
G01 X53.1410 Y16.4349
G01 X53.1334 Y16.4533
G01 X53.0890 Y16.5467
G01 X53.0360 Y16.6355
G01 X53.0249 Y16.6520
G01 X52.9631 Y16.7350
G01 X52.8939 Y16.8118
G01 X52.8798 Y16.8259
G01 X52.8030 Y16.8951
G01 X52.7200 Y16.9569
G01 X52.7035 Y16.9680
G01 X52.6147 Y17.0210
G01 X52.5213 Y17.0654
G01 X52.5029 Y17.0730
G01 X52.4054 Y17.1076
G01 X52.3051 Y17.1330
G01 X52.2856 Y17.1369
G01 X52.1832 Y17.1518
G01 X52.0800 Y17.1572
G01 X52.0600 Y17.1572
G01 X51.9568 Y17.1518
G01 X51.8544 Y17.1369
G01 X51.8349 Y17.1330
G01 X51.7346 Y17.1076
G01 X51.6371 Y17.0730
G01 X51.6187 Y17.0654
G01 X51.5253 Y17.0210
G01 X51.4365 Y16.9680
G01 X51.4200 Y16.9569
G01 X51.3370 Y16.8951
G01 X51.2602 Y16.8259
G01 X51.2461 Y16.8118
G01 X51.1834 Y16.7425
G01 X51.1707 Y16.7271
G01 X51.1093 Y16.6439
G01 X51.0559 Y16.5553
G01 X51.0466 Y16.5378
G01 X51.0026 Y16.4442
G01 X50.9659 Y16.3421
G01 X50.9617 Y16.3278
G01 X50.9368 Y16.2274
G01 X50.9214 Y16.1251
G01 X50.9197 Y16.1103
G01 X50.9148 Y16.0120
G01 X50.9147 Y15.9970
G01 X50.9197 Y15.8937
G01 X50.9214 Y15.8789
G01 X50.9291 Y15.8269
G01 X42.6716 Y4.8006
G01 X17.7049 Y4.8006
G01 X17.3641 Y6.1770
G01 X17.4564 Y6.2793
G01 X17.5415 Y6.3935
G01 X17.5525 Y6.4101
G01 X17.6255 Y6.5324
G01 X17.6867 Y6.6610
G01 X17.6943 Y6.6794
G01 X17.7420 Y6.8136
G01 X17.7791 Y6.9614
G01 X17.8014 Y7.1122
G01 X17.8087 Y7.2544
G01 X17.8087 Y7.2744
G01 X17.8014 Y7.4166
G01 X17.7808 Y7.5575
G01 X17.7769 Y7.5771
G01 X17.7420 Y7.7152
G01 X17.6943 Y7.8494
G01 X17.6867 Y7.8678
G01 X17.6300 Y7.9875
G01 X17.6206 Y8.0051
G01 X17.5472 Y8.1271
G01 X17.4564 Y8.2495
G01 X17.3609 Y8.3552
G01 X17.3468 Y8.3693
G01 X17.2411 Y8.4648
G01 X17.1187 Y8.5556
G01 X16.9967 Y8.6290
G01 X16.9791 Y8.6384
G01 X16.8503 Y8.6991
G01 X16.7068 Y8.7504
G01 X16.5687 Y8.7853
G01 X16.5491 Y8.7892
G01 X16.4082 Y8.8098
G01 X16.2610 Y8.8172
G01 X16.2460 Y8.8171
G01 X16.1038 Y8.8098
G01 X15.9629 Y8.7892
G01 X15.9433 Y8.7853
G01 X15.8148 Y8.7531
G01 X15.7958 Y8.7473
G01 X15.6617 Y8.6991
G01 X15.5240 Y8.6339
G01 X15.3933 Y8.5556
G01 X15.2709 Y8.4648
G01 X15.1579 Y8.3625
G01 X15.0556 Y8.2495
G01 X14.9648 Y8.1271
G01 X14.8914 Y8.0051
G01 X14.8820 Y7.9875
G01 X14.8253 Y7.8678
G01 X14.8177 Y7.8494
G01 X14.7700 Y7.7152
G01 X14.7351 Y7.5771
G01 X14.7312 Y7.5575
G01 X14.7106 Y7.4166
G01 X14.7031 Y7.2644
G01 X14.7106 Y7.1122
G01 X14.7312 Y6.9713
G01 X14.7351 Y6.9517
G01 X14.7700 Y6.8136
G01 X14.8177 Y6.6794
G01 X14.8253 Y6.6610
G01 X14.8820 Y6.5413
G01 X14.8914 Y6.5237
G01 X14.9648 Y6.4017
G01 X15.0556 Y6.2793
G01 X15.1579 Y6.1663
G01 X15.2709 Y6.0640
G01 X15.3933 Y5.9732
G01 X15.5240 Y5.8949
G01 X15.6617 Y5.8297
G01 X15.7865 Y5.7848
G00 Z2.0000
G00 X27.2820 Y10.1518
G01 F60.00
G01 Z-0.3000
G01 F200.00
G01 X27.3172 Y8.3239
G01 X27.2889 Y8.3069
G01 X27.2764 Y8.2988
G01 X27.1659 Y8.2169
G01 X27.1542 Y8.2076
G01 X27.0451 Y8.1085
G01 X26.9460 Y7.9994
G01 X26.9367 Y7.9877
G01 X26.8577 Y7.8813
G01 X26.8467 Y7.8647
G01 X26.7737 Y7.7424
G01 X26.7125 Y7.6138
G01 X26.7067 Y7.6000
G01 X26.6572 Y7.4612
G01 X26.6201 Y7.3134
G01 X26.5978 Y7.1626
G01 X26.5905 Y7.0204
G01 X26.5905 Y7.0004
G01 X26.5971 Y6.8681
G01 X26.5990 Y6.8483
G01 X26.6201 Y6.7074
G01 X26.6558 Y6.5644
G01 X26.6603 Y6.5502
G01 X26.7085 Y6.4161
G01 X26.7737 Y6.2784
G01 X26.8520 Y6.1477
G01 X26.9428 Y6.0253
G01 X27.0451 Y5.9123
G01 X27.1581 Y5.8100
G01 X27.2805 Y5.7192
G01 X27.4112 Y5.6409
G01 X27.5489 Y5.5757
G01 X27.6924 Y5.5244
G01 X27.8402 Y5.4873
G01 X27.9910 Y5.4650
G01 X28.1432 Y5.4575
G01 X28.2954 Y5.4650
G01 X28.4462 Y5.4873
G01 X28.5892 Y5.5230
G01 X28.6034 Y5.5275
G01 X28.7282 Y5.5721
G01 X28.7466 Y5.5797
G01 X28.8752 Y5.6409
G01 X29.0059 Y5.7192
G01 X29.1283 Y5.8100
G01 X29.2340 Y5.9055
G01 X29.2481 Y5.9196
G01 X29.3371 Y6.0177
G01 X29.3497 Y6.0331
G01 X29.4344 Y6.1477
G01 X29.5078 Y6.2697
G01 X29.5172 Y6.2873
G01 X29.5739 Y6.4070
G01 X29.5815 Y6.4254
G01 X29.6292 Y6.5596
G01 X29.6663 Y6.7074
G01 X29.6886 Y6.8582
G01 X29.6959 Y7.0004
G01 X29.6959 Y7.0204
G01 X29.6886 Y7.1626
G01 X29.6680 Y7.3035
G01 X29.6641 Y7.3231
G01 X29.6292 Y7.4612
G01 X29.5815 Y7.5954
G01 X29.5739 Y7.6138
G01 X29.5172 Y7.7335
G01 X29.5103 Y7.7468
G01 X29.4397 Y7.8647
G01 X29.4287 Y7.8813
G01 X29.3436 Y7.9955
G01 X29.2447 Y8.1049
G01 X29.2340 Y8.1153
G01 X29.1359 Y8.2043
G01 X29.1245 Y8.2139
G01 X29.0100 Y8.2988
G01 X28.9975 Y8.3069
G01 X28.9428 Y8.3397
G01 X28.9069 Y10.2061
G01 X28.9536 Y10.2577
G01 X28.9632 Y10.2691
G01 X29.0219 Y10.3482
G01 X29.0304 Y10.3605
G01 X29.0860 Y10.4535
G01 X29.1304 Y10.5469
G01 X29.1363 Y10.5607
G01 X29.1726 Y10.6628
G01 X29.2002 Y10.7728
G01 X29.2168 Y10.8850
G01 X29.2222 Y10.9882
G01 X29.2223 Y11.0032
G01 X29.2168 Y11.1114
G01 X29.2002 Y11.2236
G01 X29.1726 Y11.3336
G01 X29.1344 Y11.4404
G01 X29.0860 Y11.5429
G01 X29.0277 Y11.6401
G01 X28.9601 Y11.7312
G01 X28.8909 Y11.8080
G01 X28.8804 Y11.8187
G01 X28.8000 Y11.8913
G01 X28.7089 Y11.9589
G01 X28.6117 Y12.0172
G01 X28.5092 Y12.0656
G01 X28.4024 Y12.1038
G01 X28.2924 Y12.1314
G01 X28.1802 Y12.1480
G01 X28.0670 Y12.1536
G01 X27.9538 Y12.1480
G01 X27.8416 Y12.1314
G01 X27.7316 Y12.1038
G01 X27.6248 Y12.0656
G01 X27.5223 Y12.0172
G01 X27.4251 Y11.9589
G01 X27.3340 Y11.8913
G01 X27.2572 Y11.8221
G01 X27.2465 Y11.8116
G01 X27.1739 Y11.7312
G01 X27.1063 Y11.6401
G01 X27.0480 Y11.5429
G01 X26.9996 Y11.4404
G01 X26.9614 Y11.3336
G01 X26.9338 Y11.2236
G01 X26.9172 Y11.1114
G01 X26.9118 Y11.0082
G01 X26.9117 Y10.9932
G01 X26.9172 Y10.8850
G01 X26.9338 Y10.7728
G01 X26.9614 Y10.6628
G01 X26.9960 Y10.5653
G01 X27.0015 Y10.5515
G01 X27.0480 Y10.4535
G01 X27.1010 Y10.3647
G01 X27.1091 Y10.3522
G01 X27.1677 Y10.2731
G01 X27.1771 Y10.2614
G01 X27.2465 Y10.1848
G01 X27.2572 Y10.1743
G01 X27.2820 Y10.1518
G00 Z2.0000
G00 X30.5529 Y7.2744
G01 F60.00
G01 Z-0.3000
G01 F200.00
G01 X30.5529 Y7.2544
G01 X30.5602 Y7.1122
G01 X30.5825 Y6.9614
G01 X30.6196 Y6.8136
G01 X30.6709 Y6.6701
G01 X30.7361 Y6.5324
G01 X30.8144 Y6.4017
G01 X30.9052 Y6.2793
G01 X31.0075 Y6.1663
G01 X31.1205 Y6.0640
G01 X31.2429 Y5.9732
G01 X31.3736 Y5.8949
G01 X31.5113 Y5.8297
G01 X31.6548 Y5.7784
G01 X31.8026 Y5.7413
G01 X31.9534 Y5.7190
G01 X32.1056 Y5.7115
G01 X32.2578 Y5.7190
G01 X32.4086 Y5.7413
G01 X32.5564 Y5.7784
G01 X32.6999 Y5.8297
G01 X32.8376 Y5.8949
G01 X32.9683 Y5.9732
G01 X33.0907 Y6.0640
G01 X33.2037 Y6.1663
G01 X33.3060 Y6.2793
G01 X33.3968 Y6.4017
G01 X33.4751 Y6.5324
G01 X33.5403 Y6.6701
G01 X33.5916 Y6.8136
G01 X33.6287 Y6.9614
G01 X33.6510 Y7.1122
G01 X33.6585 Y7.2644
G01 X33.6510 Y7.4166
G01 X33.6287 Y7.5674
G01 X33.5916 Y7.7152
G01 X33.5403 Y7.8587
G01 X33.4751 Y7.9964
G01 X33.3968 Y8.1271
G01 X33.3060 Y8.2495
G01 X33.2037 Y8.3625
G01 X33.0907 Y8.4648
G01 X32.9683 Y8.5556
G01 X32.8376 Y8.6339
G01 X32.6999 Y8.6991
G01 X32.5564 Y8.7504
G01 X32.4086 Y8.7875
G01 X32.2578 Y8.8098
G01 X32.1056 Y8.8173
G01 X31.9534 Y8.8098
G01 X31.8026 Y8.7875
G01 X31.6548 Y8.7504
G01 X31.5113 Y8.6991
G01 X31.3736 Y8.6339
G01 X31.2429 Y8.5556
G01 X31.1205 Y8.4648
G01 X31.0075 Y8.3625
G01 X30.9052 Y8.2495
G01 X30.8144 Y8.1271
G01 X30.7361 Y7.9964
G01 X30.6709 Y7.8587
G01 X30.6196 Y7.7152
G01 X30.5825 Y7.5674
G01 X30.5602 Y7.4166
G01 X30.5529 Y7.2744
G00 Z2.0000
G00 X35.6044 Y8.4921
G01 F60.00
G01 Z-0.3000
G01 F200.00
G01 X35.4737 Y8.4451
G01 X35.3360 Y8.3799
G01 X35.2053 Y8.3016
G01 X35.0829 Y8.2108
G01 X34.9699 Y8.1085
G01 X34.8676 Y7.9955
G01 X34.7768 Y7.8731
G01 X34.6985 Y7.7424
G01 X34.6333 Y7.6047
G01 X34.5820 Y7.4612
G01 X34.5449 Y7.3134
G01 X34.5226 Y7.1626
G01 X34.5151 Y7.0104
G01 X34.5226 Y6.8582
G01 X34.5449 Y6.7074
G01 X34.5820 Y6.5596
G01 X34.6333 Y6.4161
G01 X34.6985 Y6.2784
G01 X34.7768 Y6.1477
G01 X34.8676 Y6.0253
G01 X34.9699 Y5.9123
G01 X35.0829 Y5.8100
G01 X35.2053 Y5.7192
G01 X35.3360 Y5.6409
G01 X35.4737 Y5.5757
G01 X35.6172 Y5.5244
G01 X35.7650 Y5.4873
G01 X35.9158 Y5.4650
G01 X36.0680 Y5.4575
G01 X36.2202 Y5.4650
G01 X36.3710 Y5.4873
G01 X36.5188 Y5.5244
G01 X36.6530 Y5.5721
G01 X36.6714 Y5.5797
G01 X36.8000 Y5.6409
G01 X36.9223 Y5.7139
G01 X36.9389 Y5.7249
G01 X37.0531 Y5.8100
G01 X37.1661 Y5.9123
G01 X37.2619 Y6.0177
G01 X37.2745 Y6.0331
G01 X37.3592 Y6.1477
G01 X37.4326 Y6.2697
G01 X37.4420 Y6.2873
G01 X37.5027 Y6.4161
G01 X37.5509 Y6.5502
G01 X37.5567 Y6.5692
G01 X37.5889 Y6.6977
G01 X37.5928 Y6.7173
G01 X37.6134 Y6.8582
G01 X37.6207 Y7.0004
G01 X37.6207 Y7.0204
G01 X37.6134 Y7.1626
G01 X37.5928 Y7.3035
G01 X37.5889 Y7.3231
G01 X37.5540 Y7.4612
G01 X37.5063 Y7.5954
G01 X37.4987 Y7.6138
G01 X37.4375 Y7.7424
G01 X37.3645 Y7.8647
G01 X37.3535 Y7.8813
G01 X37.2684 Y7.9955
G01 X37.1803 Y8.0931
G01 X37.7152 Y10.1854
G01 X41.2414 Y10.1854
G01 X41.2526 Y10.1743
G01 X41.3294 Y10.1051
G01 X41.4124 Y10.0433
G01 X41.4289 Y10.0322
G01 X41.5177 Y9.9792
G01 X41.6111 Y9.9348
G01 X41.6295 Y9.9272
G01 X41.7270 Y9.8926
G01 X41.8273 Y9.8672
G01 X41.8468 Y9.8633
G01 X41.9492 Y9.8484
G01 X42.0524 Y9.8430
G01 X42.0724 Y9.8430
G01 X42.1756 Y9.8484
G01 X42.2780 Y9.8633
G01 X42.2927 Y9.8660
G01 X42.3978 Y9.8926
G01 X42.4953 Y9.9272
G01 X42.5137 Y9.9348
G01 X42.6071 Y9.9792
G01 X42.6959 Y10.0322
G01 X42.7124 Y10.0433
G01 X42.7875 Y10.0989
G01 X42.8029 Y10.1116
G01 X42.8794 Y10.1812
G01 X42.9555 Y10.2652
G01 X43.0231 Y10.3563
G01 X43.0814 Y10.4535
G01 X43.1298 Y10.5560
G01 X43.1680 Y10.6628
G01 X43.1956 Y10.7728
G01 X43.2110 Y10.8751
G01 X43.2130 Y10.8949
G01 X43.2176 Y10.9882
G01 X43.2176 Y11.0082
G01 X43.2122 Y11.1114
G01 X43.1973 Y11.2138
G01 X43.1934 Y11.2333
G01 X43.1680 Y11.3336
G01 X43.1317 Y11.4357
G01 X43.1258 Y11.4495
G01 X43.0858 Y11.5340
G01 X43.0765 Y11.5515
G01 X43.0231 Y11.6401
G01 X42.9555 Y11.7312
G01 X42.8863 Y11.8080
G01 X42.8722 Y11.8221
G01 X42.7954 Y11.8913
G01 X42.7124 Y11.9531
G01 X42.6959 Y11.9642
G01 X42.6157 Y12.0123
G01 X42.5982 Y12.0216
G01 X42.5046 Y12.0656
G01 X42.4073 Y12.1007
G01 X42.3882 Y12.1065
G01 X42.2878 Y12.1314
G01 X42.1855 Y12.1468
G01 X42.1657 Y12.1488
G01 X42.0724 Y12.1534
G01 X42.0524 Y12.1534
G01 X41.9492 Y12.1480
G01 X41.8468 Y12.1331
G01 X41.8273 Y12.1292
G01 X41.7270 Y12.1038
G01 X41.6295 Y12.0692
G01 X41.6111 Y12.0616
G01 X41.5177 Y12.0172
G01 X41.4205 Y11.9589
G01 X41.3294 Y11.8913
G01 X41.2526 Y11.8221
G01 X41.2414 Y11.8110
G01 X37.0790 Y11.8109
G01 X37.0660 Y11.8104
G01 X37.0480 Y11.8102
G01 X37.0043 Y11.8071
G01 X36.9686 Y11.8028
G01 X36.9254 Y11.7954
G01 X36.8903 Y11.7876
G01 X36.8481 Y11.7760
G01 X36.8139 Y11.7648
G01 X36.7935 Y11.7567
G01 X36.7776 Y11.7510
G01 X36.7400 Y11.7346
G01 X36.7008 Y11.7150
G01 X36.6695 Y11.6974
G01 X36.6324 Y11.6740
G01 X36.6030 Y11.6534
G01 X36.5684 Y11.6265
G01 X36.5411 Y11.6031
G01 X36.5058 Y11.5694
G01 X36.4970 Y11.5598
G01 X36.4844 Y11.5470
G01 X36.4702 Y11.5302
G01 X36.4589 Y11.5176
G01 X36.4365 Y11.4895
G01 X36.4082 Y11.4498
G01 X36.3987 Y11.4345
G01 X36.3915 Y11.4237
G01 X36.3672 Y11.3814
G01 X36.3509 Y11.3493
G01 X36.3331 Y11.3092
G01 X36.3200 Y11.2757
G01 X36.3062 Y11.2341
G01 X36.2965 Y11.1995
G01 X35.6044 Y8.4921
G00 Z2.0000
G00 X38.4777 Y7.2744
G01 F60.00
G01 Z-0.3000
G01 F200.00
G01 X38.4777 Y7.2544
G01 X38.4850 Y7.1122
G01 X38.5073 Y6.9614
G01 X38.5444 Y6.8136
G01 X38.5957 Y6.6701
G01 X38.6609 Y6.5324
G01 X38.7392 Y6.4017
G01 X38.8300 Y6.2793
G01 X38.9323 Y6.1663
G01 X39.0453 Y6.0640
G01 X39.1677 Y5.9732
G01 X39.2984 Y5.8949
G01 X39.4361 Y5.8297
G01 X39.5796 Y5.7784
G01 X39.7274 Y5.7413
G01 X39.8782 Y5.7190
G01 X40.0304 Y5.7115
G01 X40.1826 Y5.7190
G01 X40.3334 Y5.7413
G01 X40.4812 Y5.7784
G01 X40.6247 Y5.8297
G01 X40.7624 Y5.8949
G01 X40.8931 Y5.9732
G01 X41.0155 Y6.0640
G01 X41.1285 Y6.1663
G01 X41.2308 Y6.2793
G01 X41.3216 Y6.4017
G01 X41.3999 Y6.5324
G01 X41.4651 Y6.6701
G01 X41.5164 Y6.8136
G01 X41.5535 Y6.9614
G01 X41.5758 Y7.1122
G01 X41.5833 Y7.2644
G01 X41.5758 Y7.4166
G01 X41.5535 Y7.5674
G01 X41.5164 Y7.7152
G01 X41.4651 Y7.8587
G01 X41.3999 Y7.9964
G01 X41.3216 Y8.1271
G01 X41.2308 Y8.2495
G01 X41.1285 Y8.3625
G01 X41.0155 Y8.4648
G01 X40.8931 Y8.5556
G01 X40.7624 Y8.6339
G01 X40.6247 Y8.6991
G01 X40.4812 Y8.7504
G01 X40.3334 Y8.7875
G01 X40.1826 Y8.8098
G01 X40.0304 Y8.8173
G01 X39.8782 Y8.8098
G01 X39.7274 Y8.7875
G01 X39.5796 Y8.7504
G01 X39.4361 Y8.6991
G01 X39.2984 Y8.6339
G01 X39.1677 Y8.5556
G01 X39.0453 Y8.4648
G01 X38.9323 Y8.3625
G01 X38.8300 Y8.2495
G01 X38.7392 Y8.1271
G01 X38.6609 Y7.9964
G01 X38.5957 Y7.8587
G01 X38.5444 Y7.7152
G01 X38.5073 Y7.5674
G01 X38.4850 Y7.4166
G01 X38.4777 Y7.2744
G00 Z2.0000
G00 X38.9496 Y15.1896
G01 F60.00
G01 Z-0.3000
G01 F200.00
G01 X38.9636 Y15.1892
G01 X42.2574 Y15.1892
G01 X42.2686 Y15.1781
G01 X42.3454 Y15.1089
G01 X42.4284 Y15.0471
G01 X42.4449 Y15.0360
G01 X42.5337 Y14.9830
G01 X42.6271 Y14.9386
G01 X42.6455 Y14.9310
G01 X42.7430 Y14.8964
G01 X42.8433 Y14.8710
G01 X42.8628 Y14.8671
G01 X42.9652 Y14.8522
G01 X43.0684 Y14.8468
G01 X43.0884 Y14.8468
G01 X43.1916 Y14.8522
G01 X43.3038 Y14.8688
G01 X43.4138 Y14.8964
G01 X43.5206 Y14.9346
G01 X43.6231 Y14.9830
G01 X43.7203 Y15.0413
G01 X43.8114 Y15.1089
G01 X43.8954 Y15.1850
G01 X43.9715 Y15.2690
G01 X44.0391 Y15.3601
G01 X44.0974 Y15.4573
G01 X44.1458 Y15.5598
G01 X44.1840 Y15.6666
G01 X44.2116 Y15.7766
G01 X44.2282 Y15.8888
G01 X44.2338 Y16.0020
G01 X44.2282 Y16.1152
G01 X44.2116 Y16.2274
G01 X44.1840 Y16.3374
G01 X44.1494 Y16.4349
G01 X44.1418 Y16.4533
G01 X44.1018 Y16.5378
G01 X44.0925 Y16.5553
G01 X44.0391 Y16.6439
G01 X43.9715 Y16.7350
G01 X43.8954 Y16.8190
G01 X43.8189 Y16.8886
G01 X43.8035 Y16.9013
G01 X43.7284 Y16.9569
G01 X43.7119 Y16.9680
G01 X43.6231 Y17.0210
G01 X43.5206 Y17.0694
G01 X43.4138 Y17.1076
G01 X43.3135 Y17.1330
G01 X43.2940 Y17.1369
G01 X43.2015 Y17.1506
G01 X43.1867 Y17.1523
G01 X43.0784 Y17.1574
G01 X42.9751 Y17.1526
G01 X42.9553 Y17.1506
G01 X42.8628 Y17.1369
G01 X42.8433 Y17.1330
G01 X42.7430 Y17.1076
G01 X42.6455 Y17.0730
G01 X42.6271 Y17.0654
G01 X42.5337 Y17.0210
G01 X42.4365 Y16.9627
G01 X42.3454 Y16.8951
G01 X42.2686 Y16.8259
G01 X42.2574 Y16.8148
G01 X38.9636 Y16.8148
G01 X38.9496 Y16.8144
G01 X38.8737 Y16.8829
G01 X38.7839 Y16.9495
G01 X38.6880 Y17.0070
G01 X38.5960 Y17.0507
G01 X38.5776 Y17.0584
G01 X38.4816 Y17.0924
G01 X38.3828 Y17.1174
G01 X38.3633 Y17.1213
G01 X38.2625 Y17.1360
G01 X38.1608 Y17.1413
G01 X38.1408 Y17.1413
G01 X38.0490 Y17.1368
G01 X38.0292 Y17.1348
G01 X37.9285 Y17.1196
G01 X37.8296 Y17.0951
G01 X37.8106 Y17.0893
G01 X37.7240 Y17.0584
G01 X37.7056 Y17.0507
G01 X37.6136 Y17.0070
G01 X37.5177 Y16.9495
G01 X37.4279 Y16.8829
G01 X37.3450 Y16.8078
G01 X37.2699 Y16.7249
G01 X37.2033 Y16.6351
G01 X37.1458 Y16.5392
G01 X37.0980 Y16.4381
G01 X37.0604 Y16.3328
G01 X37.0332 Y16.2243
G01 X37.0168 Y16.1137
G01 X37.0113 Y16.0020
G01 X37.0168 Y15.8903
G01 X37.0332 Y15.7797
G01 X37.0604 Y15.6712
G01 X37.0980 Y15.5659
G01 X37.1458 Y15.4648
G01 X37.2033 Y15.3689
G01 X37.2699 Y15.2791
G01 X37.3450 Y15.1962
G01 X37.4279 Y15.1211
G01 X37.5177 Y15.0545
G01 X37.6136 Y14.9970
G01 X37.7147 Y14.9492
G01 X37.8200 Y14.9116
G01 X37.9285 Y14.8844
G01 X38.0391 Y14.8680
G01 X38.1508 Y14.8625
G01 X38.2625 Y14.8680
G01 X38.3731 Y14.8844
G01 X38.4816 Y14.9116
G01 X38.5869 Y14.9492
G01 X38.6880 Y14.9970
G01 X38.7839 Y15.0545
G01 X38.8737 Y15.1211
G01 X38.9496 Y15.1896
G00 Z2.0000
G00 X38.2783 Y23.7844
G01 F60.00
G01 Z-0.3000
G01 F200.00
G01 X38.2783 Y23.7644
G01 X38.2834 Y23.6674
G01 X38.2991 Y23.5614
G01 X38.3251 Y23.4574
G01 X38.3612 Y23.3565
G01 X38.4070 Y23.2597
G01 X38.4621 Y23.1678
G01 X38.5260 Y23.0817
G01 X38.5979 Y23.0023
G01 X38.6773 Y22.9304
G01 X38.7634 Y22.8665
G01 X38.8553 Y22.8114
G01 X38.9521 Y22.7656
G01 X39.0530 Y22.7295
G01 X39.1570 Y22.7035
G01 X39.2630 Y22.6878
G01 X39.3700 Y22.6825
G01 X39.4770 Y22.6878
G01 X39.5830 Y22.7035
G01 X39.6870 Y22.7295
G01 X39.7879 Y22.7656
G01 X39.8847 Y22.8114
G01 X39.9766 Y22.8665
G01 X40.0627 Y22.9304
G01 X40.1421 Y23.0023
G01 X40.2140 Y23.0817
G01 X40.2779 Y23.1678
G01 X40.3330 Y23.2597
G01 X40.3788 Y23.3565
G01 X40.4149 Y23.4574
G01 X40.4409 Y23.5614
G01 X40.4566 Y23.6674
G01 X40.4619 Y23.7744
G01 X40.4566 Y23.8814
G01 X40.4409 Y23.9874
G01 X40.4149 Y24.0914
G01 X40.3788 Y24.1923
G01 X40.3330 Y24.2891
G01 X40.2779 Y24.3810
G01 X40.2140 Y24.4671
G01 X40.1421 Y24.5465
G01 X40.0627 Y24.6184
G01 X39.9766 Y24.6823
G01 X39.8847 Y24.7374
G01 X39.7879 Y24.7832
G01 X39.6870 Y24.8193
G01 X39.5830 Y24.8453
G01 X39.4770 Y24.8610
G01 X39.3700 Y24.8663
G01 X39.2630 Y24.8610
G01 X39.1570 Y24.8453
G01 X39.0530 Y24.8193
G01 X38.9521 Y24.7832
G01 X38.8553 Y24.7374
G01 X38.7634 Y24.6823
G01 X38.6773 Y24.6184
G01 X38.5979 Y24.5465
G01 X38.5260 Y24.4671
G01 X38.4621 Y24.3810
G01 X38.4070 Y24.2891
G01 X38.3612 Y24.1923
G01 X38.3251 Y24.0914
G01 X38.2991 Y23.9874
G01 X38.2834 Y23.8814
G01 X38.2783 Y23.7844
G00 Z2.0000
G00 X40.8183 Y23.7844
G01 F60.00
G01 Z-0.3000
G01 F200.00
G01 X40.8183 Y23.7644
G01 X40.8234 Y23.6674
G01 X40.8391 Y23.5614
G01 X40.8651 Y23.4574
G01 X40.9012 Y23.3565
G01 X40.9470 Y23.2597
G01 X41.0021 Y23.1678
G01 X41.0660 Y23.0817
G01 X41.1379 Y23.0023
G01 X41.2173 Y22.9304
G01 X41.3034 Y22.8665
G01 X41.3953 Y22.8114
G01 X41.4921 Y22.7656
G01 X41.5930 Y22.7295
G01 X41.6970 Y22.7035
G01 X41.8030 Y22.6878
G01 X41.9100 Y22.6825
G01 X42.0170 Y22.6878
G01 X42.1230 Y22.7035
G01 X42.2270 Y22.7295
G01 X42.3279 Y22.7656
G01 X42.4247 Y22.8114
G01 X42.5166 Y22.8665
G01 X42.6027 Y22.9304
G01 X42.6821 Y23.0023
G01 X42.7540 Y23.0817
G01 X42.8179 Y23.1678
G01 X42.8730 Y23.2597
G01 X42.9188 Y23.3565
G01 X42.9549 Y23.4574
G01 X42.9809 Y23.5614
G01 X42.9966 Y23.6674
G01 X43.0019 Y23.7744
G01 X42.9966 Y23.8814
G01 X42.9809 Y23.9874
G01 X42.9549 Y24.0914
G01 X42.9188 Y24.1923
G01 X42.8730 Y24.2891
G01 X42.8179 Y24.3810
G01 X42.7540 Y24.4671
G01 X42.6821 Y24.5465
G01 X42.6027 Y24.6184
G01 X42.5166 Y24.6823
G01 X42.4247 Y24.7374
G01 X42.3279 Y24.7832
G01 X42.2270 Y24.8193
G01 X42.1230 Y24.8453
G01 X42.0170 Y24.8610
G01 X41.9100 Y24.8663
G01 X41.8030 Y24.8610
G01 X41.6970 Y24.8453
G01 X41.5930 Y24.8193
G01 X41.4921 Y24.7832
G01 X41.3953 Y24.7374
G01 X41.3034 Y24.6823
G01 X41.2173 Y24.6184
G01 X41.1379 Y24.5465
G01 X41.0660 Y24.4671
G01 X41.0021 Y24.3810
G01 X40.9470 Y24.2891
G01 X40.9012 Y24.1923
G01 X40.8651 Y24.0914
G01 X40.8391 Y23.9874
G01 X40.8234 Y23.8814
G01 X40.8183 Y23.7844
G00 Z2.0000
G00 X43.3583 Y23.7844
G01 F60.00
G01 Z-0.3000
G01 F200.00
G01 X43.3583 Y23.7644
G01 X43.3634 Y23.6674
G01 X43.3791 Y23.5614
G01 X43.4051 Y23.4574
G01 X43.4412 Y23.3565
G01 X43.4870 Y23.2597
G01 X43.5421 Y23.1678
G01 X43.6060 Y23.0817
G01 X43.6779 Y23.0023
G01 X43.7573 Y22.9304
G01 X43.8434 Y22.8665
G01 X43.9353 Y22.8114
G01 X44.0321 Y22.7656
G01 X44.1330 Y22.7295
G01 X44.2370 Y22.7035
G01 X44.3430 Y22.6878
G01 X44.4500 Y22.6825
G01 X44.5570 Y22.6878
G01 X44.6630 Y22.7035
G01 X44.7670 Y22.7295
G01 X44.8679 Y22.7656
G01 X44.9647 Y22.8114
G01 X45.0566 Y22.8665
G01 X45.1427 Y22.9304
G01 X45.2221 Y23.0023
G01 X45.2940 Y23.0817
G01 X45.3579 Y23.1678
G01 X45.4130 Y23.2597
G01 X45.4588 Y23.3565
G01 X45.4949 Y23.4574
G01 X45.5209 Y23.5614
G01 X45.5366 Y23.6674
G01 X45.5419 Y23.7744
G01 X45.5366 Y23.8814
G01 X45.5209 Y23.9874
G01 X45.4949 Y24.0914
G01 X45.4588 Y24.1923
G01 X45.4130 Y24.2891
G01 X45.3579 Y24.3810
G01 X45.2940 Y24.4671
G01 X45.2221 Y24.5465
G01 X45.1427 Y24.6184
G01 X45.0566 Y24.6823
G01 X44.9647 Y24.7374
G01 X44.8679 Y24.7832
G01 X44.7670 Y24.8193
G01 X44.6630 Y24.8453
G01 X44.5570 Y24.8610
G01 X44.4500 Y24.8663
G01 X44.3430 Y24.8610
G01 X44.2370 Y24.8453
G01 X44.1330 Y24.8193
G01 X44.0321 Y24.7832
G01 X43.9353 Y24.7374
G01 X43.8434 Y24.6823
G01 X43.7573 Y24.6184
G01 X43.6779 Y24.5465
G01 X43.6060 Y24.4671
G01 X43.5421 Y24.3810
G01 X43.4870 Y24.2891
G01 X43.4412 Y24.1923
G01 X43.4051 Y24.0914
G01 X43.3791 Y23.9874
G01 X43.3634 Y23.8814
G01 X43.3583 Y23.7844
G00 Z2.0000
G00 X45.8983 Y23.7844
G01 F60.00
G01 Z-0.3000
G01 F200.00
G01 X45.8983 Y23.7644
G01 X45.9034 Y23.6674
G01 X45.9191 Y23.5614
G01 X45.9451 Y23.4574
G01 X45.9812 Y23.3565
G01 X46.0270 Y23.2597
G01 X46.0821 Y23.1678
G01 X46.1460 Y23.0817
G01 X46.2179 Y23.0023
G01 X46.2973 Y22.9304
G01 X46.3834 Y22.8665
G01 X46.4753 Y22.8114
G01 X46.5721 Y22.7656
G01 X46.6730 Y22.7295
G01 X46.7770 Y22.7035
G01 X46.8830 Y22.6878
G01 X46.9900 Y22.6825
G01 X47.0970 Y22.6878
G01 X47.2030 Y22.7035
G01 X47.3070 Y22.7295
G01 X47.4079 Y22.7656
G01 X47.5047 Y22.8114
G01 X47.5966 Y22.8665
G01 X47.6827 Y22.9304
G01 X47.7621 Y23.0023
G01 X47.8340 Y23.0817
G01 X47.8979 Y23.1678
G01 X47.9530 Y23.2597
G01 X47.9988 Y23.3565
G01 X48.0349 Y23.4574
G01 X48.0609 Y23.5614
G01 X48.0766 Y23.6674
G01 X48.0819 Y23.7744
G01 X48.0766 Y23.8814
G01 X48.0609 Y23.9874
G01 X48.0349 Y24.0914
G01 X47.9988 Y24.1923
G01 X47.9530 Y24.2891
G01 X47.8979 Y24.3810
G01 X47.8340 Y24.4671
G01 X47.7621 Y24.5465
G01 X47.6827 Y24.6184
G01 X47.5966 Y24.6823
G01 X47.5047 Y24.7374
G01 X47.4079 Y24.7832
G01 X47.3070 Y24.8193
G01 X47.2030 Y24.8453
G01 X47.0970 Y24.8610
G01 X46.9900 Y24.8663
G01 X46.8830 Y24.8610
G01 X46.7770 Y24.8453
G01 X46.6730 Y24.8193
G01 X46.5721 Y24.7832
G01 X46.4753 Y24.7374
G01 X46.3834 Y24.6823
G01 X46.2973 Y24.6184
G01 X46.2179 Y24.5465
G01 X46.1460 Y24.4671
G01 X46.0821 Y24.3810
G01 X46.0270 Y24.2891
G01 X45.9812 Y24.1923
G01 X45.9451 Y24.0914
G01 X45.9191 Y23.9874
G01 X45.9034 Y23.8814
G01 X45.8983 Y23.7844
G00 Z2.0000
G00 X48.4383 Y23.7844
G01 F60.00
G01 Z-0.3000
G01 F200.00
G01 X48.4383 Y23.7644
G01 X48.4434 Y23.6674
G01 X48.4591 Y23.5614
G01 X48.4851 Y23.4574
G01 X48.5212 Y23.3565
G01 X48.5670 Y23.2597
G01 X48.6221 Y23.1678
G01 X48.6860 Y23.0817
G01 X48.7579 Y23.0023
G01 X48.8373 Y22.9304
G01 X48.9234 Y22.8665
G01 X49.0153 Y22.8114
G01 X49.1121 Y22.7656
G01 X49.2130 Y22.7295
G01 X49.3170 Y22.7035
G01 X49.4230 Y22.6878
G01 X49.5300 Y22.6825
G01 X49.6370 Y22.6878
G01 X49.7430 Y22.7035
G01 X49.8470 Y22.7295
G01 X49.9479 Y22.7656
G01 X50.0447 Y22.8114
G01 X50.1366 Y22.8665
G01 X50.2227 Y22.9304
G01 X50.3021 Y23.0023
G01 X50.3740 Y23.0817
G01 X50.4379 Y23.1678
G01 X50.4930 Y23.2597
G01 X50.5388 Y23.3565
G01 X50.5749 Y23.4574
G01 X50.6009 Y23.5614
G01 X50.6166 Y23.6674
G01 X50.6219 Y23.7744
G01 X50.6166 Y23.8814
G01 X50.6009 Y23.9874
G01 X50.5749 Y24.0914
G01 X50.5388 Y24.1923
G01 X50.4930 Y24.2891
G01 X50.4379 Y24.3810
G01 X50.3740 Y24.4671
G01 X50.3021 Y24.5465
G01 X50.2227 Y24.6184
G01 X50.1366 Y24.6823
G01 X50.0447 Y24.7374
G01 X49.9479 Y24.7832
G01 X49.8470 Y24.8193
G01 X49.7430 Y24.8453
G01 X49.6370 Y24.8610
G01 X49.5300 Y24.8663
G01 X49.4230 Y24.8610
G01 X49.3170 Y24.8453
G01 X49.2130 Y24.8193
G01 X49.1121 Y24.7832
G01 X49.0153 Y24.7374
G01 X48.9234 Y24.6823
G01 X48.8373 Y24.6184
G01 X48.7579 Y24.5465
G01 X48.6860 Y24.4671
G01 X48.6221 Y24.3810
G01 X48.5670 Y24.2891
G01 X48.5212 Y24.1923
G01 X48.4851 Y24.0914
G01 X48.4591 Y23.9874
G01 X48.4434 Y23.8814
G01 X48.4383 Y23.7844
G00 Z2.0000
G00 X50.9783 Y23.7844
G01 F60.00
G01 Z-0.3000
G01 F200.00
G01 X50.9783 Y23.7644
G01 X50.9834 Y23.6674
G01 X50.9991 Y23.5614
G01 X51.0251 Y23.4574
G01 X51.0612 Y23.3565
G01 X51.1070 Y23.2597
G01 X51.1621 Y23.1678
G01 X51.2260 Y23.0817
G01 X51.2979 Y23.0023
G01 X51.3773 Y22.9304
G01 X51.4634 Y22.8665
G01 X51.5553 Y22.8114
G01 X51.6521 Y22.7656
G01 X51.7530 Y22.7295
G01 X51.8570 Y22.7035
G01 X51.9630 Y22.6878
G01 X52.0700 Y22.6825
G01 X52.1770 Y22.6878
G01 X52.2830 Y22.7035
G01 X52.3870 Y22.7295
G01 X52.4879 Y22.7656
G01 X52.5847 Y22.8114
G01 X52.6766 Y22.8665
G01 X52.7627 Y22.9304
G01 X52.8421 Y23.0023
G01 X52.9140 Y23.0817
G01 X52.9779 Y23.1678
G01 X53.0330 Y23.2597
G01 X53.0788 Y23.3565
G01 X53.1149 Y23.4574
G01 X53.1409 Y23.5614
G01 X53.1566 Y23.6674
G01 X53.1619 Y23.7744
G01 X53.1566 Y23.8814
G01 X53.1409 Y23.9874
G01 X53.1149 Y24.0914
G01 X53.0788 Y24.1923
G01 X53.0330 Y24.2891
G01 X52.9779 Y24.3810
G01 X52.9140 Y24.4671
G01 X52.8421 Y24.5465
G01 X52.7627 Y24.6184
G01 X52.6766 Y24.6823
G01 X52.5847 Y24.7374
G01 X52.4879 Y24.7832
G01 X52.3870 Y24.8193
G01 X52.2830 Y24.8453
G01 X52.1770 Y24.8610
G01 X52.0700 Y24.8663
G01 X51.9630 Y24.8610
G01 X51.8570 Y24.8453
G01 X51.7530 Y24.8193
G01 X51.6521 Y24.7832
G01 X51.5553 Y24.7374
G01 X51.4634 Y24.6823
G01 X51.3773 Y24.6184
G01 X51.2979 Y24.5465
G01 X51.2260 Y24.4671
G01 X51.1621 Y24.3810
G01 X51.1070 Y24.2891
G01 X51.0612 Y24.1923
G01 X51.0251 Y24.0914
G01 X50.9991 Y23.9874
G01 X50.9834 Y23.8814
G01 X50.9783 Y23.7844
G00 Z2.0000
G00 X53.5183 Y23.7844
G01 F60.00
G01 Z-0.3000
G01 F200.00
G01 X53.5183 Y23.7644
G01 X53.5234 Y23.6674
G01 X53.5391 Y23.5614
G01 X53.5651 Y23.4574
G01 X53.6012 Y23.3565
G01 X53.6470 Y23.2597
G01 X53.7021 Y23.1678
G01 X53.7660 Y23.0817
G01 X53.8379 Y23.0023
G01 X53.9173 Y22.9304
G01 X54.0034 Y22.8665
G01 X54.0953 Y22.8114
G01 X54.1921 Y22.7656
G01 X54.2930 Y22.7295
G01 X54.3970 Y22.7035
G01 X54.5030 Y22.6878
G01 X54.6100 Y22.6825
G01 X54.7170 Y22.6878
G01 X54.8230 Y22.7035
G01 X54.9270 Y22.7295
G01 X55.0279 Y22.7656
G01 X55.1247 Y22.8114
G01 X55.2166 Y22.8665
G01 X55.3027 Y22.9304
G01 X55.3821 Y23.0023
G01 X55.4540 Y23.0817
G01 X55.5179 Y23.1678
G01 X55.5730 Y23.2597
G01 X55.6188 Y23.3565
G01 X55.6549 Y23.4574
G01 X55.6809 Y23.5614
G01 X55.6966 Y23.6674
G01 X55.7019 Y23.7744
G01 X55.6966 Y23.8814
G01 X55.6809 Y23.9874
G01 X55.6549 Y24.0914
G01 X55.6188 Y24.1923
G01 X55.5730 Y24.2891
G01 X55.5179 Y24.3810
G01 X55.4540 Y24.4671
G01 X55.3821 Y24.5465
G01 X55.3027 Y24.6184
G01 X55.2166 Y24.6823
G01 X55.1247 Y24.7374
G01 X55.0279 Y24.7832
G01 X54.9270 Y24.8193
G01 X54.8230 Y24.8453
G01 X54.7170 Y24.8610
G01 X54.6100 Y24.8663
G01 X54.5030 Y24.8610
G01 X54.3970 Y24.8453
G01 X54.2930 Y24.8193
G01 X54.1921 Y24.7832
G01 X54.0953 Y24.7374
G01 X54.0034 Y24.6823
G01 X53.9173 Y24.6184
G01 X53.8379 Y24.5465
G01 X53.7660 Y24.4671
G01 X53.7021 Y24.3810
G01 X53.6470 Y24.2891
G01 X53.6012 Y24.1923
G01 X53.5651 Y24.0914
G01 X53.5391 Y23.9874
G01 X53.5234 Y23.8814
G01 X53.5183 Y23.7844
G00 Z2.0000
G00 X56.0583 Y23.7844
G01 F60.00
G01 Z-0.3000
G01 F200.00
G01 X56.0583 Y23.7644
G01 X56.0634 Y23.6674
G01 X56.0791 Y23.5614
G01 X56.1051 Y23.4574
G01 X56.1412 Y23.3565
G01 X56.1870 Y23.2597
G01 X56.2421 Y23.1678
G01 X56.3060 Y23.0817
G01 X56.3779 Y23.0023
G01 X56.4573 Y22.9304
G01 X56.5434 Y22.8665
G01 X56.6353 Y22.8114
G01 X56.7321 Y22.7656
G01 X56.8330 Y22.7295
G01 X56.9370 Y22.7035
G01 X57.0430 Y22.6878
G01 X57.1500 Y22.6825
G01 X57.2570 Y22.6878
G01 X57.3630 Y22.7035
G01 X57.4670 Y22.7295
G01 X57.5679 Y22.7656
G01 X57.6647 Y22.8114
G01 X57.7566 Y22.8665
G01 X57.8427 Y22.9304
G01 X57.9221 Y23.0023
G01 X57.9940 Y23.0817
G01 X58.0579 Y23.1678
G01 X58.1130 Y23.2597
G01 X58.1588 Y23.3565
G01 X58.1949 Y23.4574
G01 X58.2209 Y23.5614
G01 X58.2366 Y23.6674
G01 X58.2419 Y23.7744
G01 X58.2366 Y23.8814
G01 X58.2209 Y23.9874
G01 X58.1949 Y24.0914
G01 X58.1588 Y24.1923
G01 X58.1130 Y24.2891
G01 X58.0579 Y24.3810
G01 X57.9940 Y24.4671
G01 X57.9221 Y24.5465
G01 X57.8427 Y24.6184
G01 X57.7566 Y24.6823
G01 X57.6647 Y24.7374
G01 X57.5679 Y24.7832
G01 X57.4670 Y24.8193
G01 X57.3630 Y24.8453
G01 X57.2570 Y24.8610
G01 X57.1500 Y24.8663
G01 X57.0430 Y24.8610
G01 X56.9370 Y24.8453
G01 X56.8330 Y24.8193
G01 X56.7321 Y24.7832
G01 X56.6353 Y24.7374
G01 X56.5434 Y24.6823
G01 X56.4573 Y24.6184
G01 X56.3779 Y24.5465
G01 X56.3060 Y24.4671
G01 X56.2421 Y24.3810
G01 X56.1870 Y24.2891
G01 X56.1412 Y24.1923
G01 X56.1051 Y24.0914
G01 X56.0791 Y23.9874
G01 X56.0634 Y23.8814
G01 X56.0583 Y23.7844
G00 Z2.0000
G00 X58.5983 Y23.7844
G01 F60.00
G01 Z-0.3000
G01 F200.00
G01 X58.5983 Y23.7644
G01 X58.6034 Y23.6674
G01 X58.6191 Y23.5614
G01 X58.6451 Y23.4574
G01 X58.6812 Y23.3565
G01 X58.7270 Y23.2597
G01 X58.7821 Y23.1678
G01 X58.8460 Y23.0817
G01 X58.9179 Y23.0023
G01 X58.9973 Y22.9304
G01 X59.0834 Y22.8665
G01 X59.1753 Y22.8114
G01 X59.2721 Y22.7656
G01 X59.3730 Y22.7295
G01 X59.4770 Y22.7035
G01 X59.5830 Y22.6878
G01 X59.6900 Y22.6825
G01 X59.7970 Y22.6878
G01 X59.9030 Y22.7035
G01 X60.0070 Y22.7295
G01 X60.1079 Y22.7656
G01 X60.2047 Y22.8114
G01 X60.2966 Y22.8665
G01 X60.3827 Y22.9304
G01 X60.4621 Y23.0023
G01 X60.5340 Y23.0817
G01 X60.5979 Y23.1678
G01 X60.6530 Y23.2597
G01 X60.6988 Y23.3565
G01 X60.7349 Y23.4574
G01 X60.7609 Y23.5614
G01 X60.7766 Y23.6674
G01 X60.7819 Y23.7744
G01 X60.7766 Y23.8814
G01 X60.7609 Y23.9874
G01 X60.7349 Y24.0914
G01 X60.6988 Y24.1923
G01 X60.6530 Y24.2891
G01 X60.5979 Y24.3810
G01 X60.5340 Y24.4671
G01 X60.4621 Y24.5465
G01 X60.3827 Y24.6184
G01 X60.2966 Y24.6823
G01 X60.2047 Y24.7374
G01 X60.1079 Y24.7832
G01 X60.0070 Y24.8193
G01 X59.9030 Y24.8453
G01 X59.7970 Y24.8610
G01 X59.6900 Y24.8663
G01 X59.5830 Y24.8610
G01 X59.4770 Y24.8453
G01 X59.3730 Y24.8193
G01 X59.2721 Y24.7832
G01 X59.1753 Y24.7374
G01 X59.0834 Y24.6823
G01 X58.9973 Y24.6184
G01 X58.9179 Y24.5465
G01 X58.8460 Y24.4671
G01 X58.7821 Y24.3810
G01 X58.7270 Y24.2891
G01 X58.6812 Y24.1923
G01 X58.6451 Y24.0914
G01 X58.6191 Y23.9874
G01 X58.6034 Y23.8814
G01 X58.5983 Y23.7844
G00 Z2.0000
G00 X61.1383 Y23.7844
G01 F60.00
G01 Z-0.3000
G01 F200.00
G01 X61.1383 Y23.7644
G01 X61.1434 Y23.6674
G01 X61.1591 Y23.5614
G01 X61.1851 Y23.4574
G01 X61.2212 Y23.3565
G01 X61.2670 Y23.2597
G01 X61.3221 Y23.1678
G01 X61.3860 Y23.0817
G01 X61.4579 Y23.0023
G01 X61.5373 Y22.9304
G01 X61.6234 Y22.8665
G01 X61.7153 Y22.8114
G01 X61.8121 Y22.7656
G01 X61.9130 Y22.7295
G01 X62.0170 Y22.7035
G01 X62.1230 Y22.6878
G01 X62.2300 Y22.6825
G01 X62.3370 Y22.6878
G01 X62.4430 Y22.7035
G01 X62.5470 Y22.7295
G01 X62.6479 Y22.7656
G01 X62.7447 Y22.8114
G01 X62.8366 Y22.8665
G01 X62.9227 Y22.9304
G01 X63.0021 Y23.0023
G01 X63.0740 Y23.0817
G01 X63.1379 Y23.1678
G01 X63.1930 Y23.2597
G01 X63.2388 Y23.3565
G01 X63.2749 Y23.4574
G01 X63.3009 Y23.5614
G01 X63.3166 Y23.6674
G01 X63.3219 Y23.7744
G01 X63.3166 Y23.8814
G01 X63.3009 Y23.9874
G01 X63.2749 Y24.0914
G01 X63.2388 Y24.1923
G01 X63.1930 Y24.2891
G01 X63.1379 Y24.3810
G01 X63.0740 Y24.4671
G01 X63.0021 Y24.5465
G01 X62.9227 Y24.6184
G01 X62.8366 Y24.6823
G01 X62.7447 Y24.7374
G01 X62.6479 Y24.7832
G01 X62.5470 Y24.8193
G01 X62.4430 Y24.8453
G01 X62.3370 Y24.8610
G01 X62.2300 Y24.8663
G01 X62.1230 Y24.8610
G01 X62.0170 Y24.8453
G01 X61.9130 Y24.8193
G01 X61.8121 Y24.7832
G01 X61.7153 Y24.7374
G01 X61.6234 Y24.6823
G01 X61.5373 Y24.6184
G01 X61.4579 Y24.5465
G01 X61.3860 Y24.4671
G01 X61.3221 Y24.3810
G01 X61.2670 Y24.2891
G01 X61.2212 Y24.1923
G01 X61.1851 Y24.0914
G01 X61.1591 Y23.9874
G01 X61.1434 Y23.8814
G01 X61.1383 Y23.7844
G00 Z2.0000
G00 X63.6783 Y23.7844
G01 F60.00
G01 Z-0.3000
G01 F200.00
G01 X63.6783 Y23.7644
G01 X63.6834 Y23.6674
G01 X63.6991 Y23.5614
G01 X63.7251 Y23.4574
G01 X63.7612 Y23.3565
G01 X63.8070 Y23.2597
G01 X63.8621 Y23.1678
G01 X63.9260 Y23.0817
G01 X63.9979 Y23.0023
G01 X64.0773 Y22.9304
G01 X64.1634 Y22.8665
G01 X64.2553 Y22.8114
G01 X64.3521 Y22.7656
G01 X64.4530 Y22.7295
G01 X64.5570 Y22.7035
G01 X64.6630 Y22.6878
G01 X64.7700 Y22.6825
G01 X64.8770 Y22.6878
G01 X64.9830 Y22.7035
G01 X65.0870 Y22.7295
G01 X65.1879 Y22.7656
G01 X65.2847 Y22.8114
G01 X65.3766 Y22.8665
G01 X65.4627 Y22.9304
G01 X65.5421 Y23.0023
G01 X65.6140 Y23.0817
G01 X65.6779 Y23.1678
G01 X65.7330 Y23.2597
G01 X65.7788 Y23.3565
G01 X65.8149 Y23.4574
G01 X65.8409 Y23.5614
G01 X65.8566 Y23.6674
G01 X65.8619 Y23.7744
G01 X65.8566 Y23.8814
G01 X65.8409 Y23.9874
G01 X65.8149 Y24.0914
G01 X65.7788 Y24.1923
G01 X65.7330 Y24.2891
G01 X65.6779 Y24.3810
G01 X65.6140 Y24.4671
G01 X65.5421 Y24.5465
G01 X65.4627 Y24.6184
G01 X65.3766 Y24.6823
G01 X65.2847 Y24.7374
G01 X65.1879 Y24.7832
G01 X65.0870 Y24.8193
G01 X64.9830 Y24.8453
G01 X64.8770 Y24.8610
G01 X64.7700 Y24.8663
G01 X64.6630 Y24.8610
G01 X64.5570 Y24.8453
G01 X64.4530 Y24.8193
G01 X64.3521 Y24.7832
G01 X64.2553 Y24.7374
G01 X64.1634 Y24.6823
G01 X64.0773 Y24.6184
G01 X63.9979 Y24.5465
G01 X63.9260 Y24.4671
G01 X63.8621 Y24.3810
G01 X63.8070 Y24.2891
G01 X63.7612 Y24.1923
G01 X63.7251 Y24.0914
G01 X63.6991 Y23.9874
G01 X63.6834 Y23.8814
G01 X63.6783 Y23.7844
G00 Z2.0000
G00 X58.9297 Y38.2313
G01 F60.00
G01 Z-0.3000
G01 F200.00
G01 X58.9305 Y38.2141
G01 X59.2011 Y34.7696
G01 X59.1811 Y34.7474
G01 X59.1748 Y34.7397
G01 X59.1131 Y34.6566
G01 X59.1050 Y34.6441
G01 X59.0569 Y34.5639
G01 X59.0497 Y34.5508
G01 X59.0036 Y34.4528
G01 X58.9685 Y34.3555
G01 X58.9627 Y34.3364
G01 X58.9388 Y34.2409
G01 X58.9361 Y34.2262
G01 X58.9212 Y34.1238
G01 X58.9158 Y34.0206
G01 X58.9158 Y34.0006
G01 X58.9212 Y33.8974
G01 X58.9361 Y33.7950
G01 X58.9400 Y33.7755
G01 X58.9640 Y33.6800
G01 X58.9685 Y33.6657
G01 X59.0036 Y33.5684
G01 X59.0520 Y33.4659
G01 X59.1103 Y33.3687
G01 X59.1779 Y33.2776
G01 X59.2540 Y33.1936
G01 X59.3380 Y33.1175
G01 X59.4291 Y33.0499
G01 X59.5263 Y32.9916
G01 X59.6288 Y32.9432
G01 X59.7356 Y32.9050
G01 X59.8456 Y32.8774
G01 X59.9578 Y32.8608
G01 X60.0710 Y32.8552
G01 X60.1842 Y32.8608
G01 X60.2964 Y32.8774
G01 X60.4016 Y32.9036
G01 X60.4159 Y32.9081
G01 X60.5039 Y32.9396
G01 X60.5223 Y32.9472
G01 X60.6157 Y32.9916
G01 X60.7129 Y33.0499
G01 X60.8040 Y33.1175
G01 X60.8808 Y33.1867
G01 X60.8949 Y33.2008
G01 X60.9576 Y33.2701
G01 X60.9703 Y33.2855
G01 X61.0317 Y33.3687
G01 X61.0900 Y33.4659
G01 X61.1384 Y33.5684
G01 X61.1735 Y33.6657
G01 X61.1793 Y33.6848
G01 X61.2020 Y33.7755
G01 X61.2059 Y33.7950
G01 X61.2208 Y33.8974
G01 X61.2264 Y34.0106
G01 X61.2208 Y34.1238
G01 X61.2042 Y34.2360
G01 X61.1766 Y34.3460
G01 X61.1420 Y34.4435
G01 X61.1344 Y34.4619
G01 X61.0900 Y34.5553
G01 X61.0370 Y34.6441
G01 X61.0259 Y34.6606
G01 X60.9703 Y34.7357
G01 X60.9576 Y34.7511
G01 X60.8880 Y34.8276
G01 X60.8225 Y34.8873
G01 X60.5509 Y38.3440
G01 X60.5979 Y38.4078
G01 X60.6530 Y38.4997
G01 X60.6988 Y38.5965
G01 X60.7349 Y38.6974
G01 X60.7609 Y38.8014
G01 X60.7766 Y38.9074
G01 X60.7819 Y39.0144
G01 X60.7771 Y39.1165
G01 X60.7754 Y39.1313
G01 X60.7609 Y39.2274
G01 X60.7375 Y39.3218
G01 X60.7318 Y39.3408
G01 X60.7024 Y39.4230
G01 X60.6947 Y39.4414
G01 X60.6530 Y39.5291
G01 X60.5979 Y39.6210
G01 X60.5340 Y39.7071
G01 X60.4621 Y39.7865
G01 X60.3827 Y39.8584
G01 X60.2966 Y39.9223
G01 X60.2047 Y39.9774
G01 X60.1079 Y40.0232
G01 X60.0070 Y40.0593
G01 X59.9030 Y40.0853
G01 X59.7970 Y40.1010
G01 X59.6900 Y40.1063
G01 X59.5830 Y40.1010
G01 X59.4770 Y40.0853
G01 X59.3730 Y40.0593
G01 X59.2721 Y40.0232
G01 X59.1753 Y39.9774
G01 X59.0834 Y39.9223
G01 X58.9973 Y39.8584
G01 X58.9179 Y39.7865
G01 X58.8460 Y39.7071
G01 X58.7821 Y39.6210
G01 X58.7270 Y39.5291
G01 X58.6812 Y39.4323
G01 X58.6451 Y39.3314
G01 X58.6191 Y39.2274
G01 X58.6034 Y39.1214
G01 X58.5981 Y39.0144
G01 X58.6034 Y38.9074
G01 X58.6191 Y38.8014
G01 X58.6451 Y38.6974
G01 X58.6812 Y38.5965
G01 X58.7270 Y38.4997
G01 X58.7821 Y38.4078
G01 X58.8460 Y38.3217
G01 X58.9110 Y38.2495
G01 X58.9179 Y38.2423
G01 X58.9297 Y38.2313
G00 Z2.0000
G00 X61.1383 Y39.0244
G01 F60.00
G01 Z-0.3000
G01 F200.00
G01 X61.1383 Y39.0044
G01 X61.1434 Y38.9074
G01 X61.1591 Y38.8014
G01 X61.1851 Y38.6974
G01 X61.2212 Y38.5965
G01 X61.2670 Y38.4997
G01 X61.3221 Y38.4078
G01 X61.3860 Y38.3217
G01 X61.4579 Y38.2423
G01 X61.5373 Y38.1704
G01 X61.6234 Y38.1065
G01 X61.7153 Y38.0514
G01 X61.8121 Y38.0056
G01 X61.9130 Y37.9695
G01 X62.0170 Y37.9435
G01 X62.1230 Y37.9278
G01 X62.2300 Y37.9225
G01 X62.3370 Y37.9278
G01 X62.4430 Y37.9435
G01 X62.5470 Y37.9695
G01 X62.6479 Y38.0056
G01 X62.7447 Y38.0514
G01 X62.8366 Y38.1065
G01 X62.9227 Y38.1704
G01 X63.0021 Y38.2423
G01 X63.0740 Y38.3217
G01 X63.1379 Y38.4078
G01 X63.1930 Y38.4997
G01 X63.2388 Y38.5965
G01 X63.2749 Y38.6974
G01 X63.3009 Y38.8014
G01 X63.3166 Y38.9074
G01 X63.3219 Y39.0144
G01 X63.3166 Y39.1214
G01 X63.3009 Y39.2274
G01 X63.2749 Y39.3314
G01 X63.2388 Y39.4323
G01 X63.1930 Y39.5291
G01 X63.1379 Y39.6210
G01 X63.0740 Y39.7071
G01 X63.0021 Y39.7865
G01 X62.9227 Y39.8584
G01 X62.8366 Y39.9223
G01 X62.7447 Y39.9774
G01 X62.6479 Y40.0232
G01 X62.5470 Y40.0593
G01 X62.4430 Y40.0853
G01 X62.3370 Y40.1010
G01 X62.2300 Y40.1063
G01 X62.1230 Y40.1010
G01 X62.0170 Y40.0853
G01 X61.9130 Y40.0593
G01 X61.8121 Y40.0232
G01 X61.7153 Y39.9774
G01 X61.6234 Y39.9223
G01 X61.5373 Y39.8584
G01 X61.4579 Y39.7865
G01 X61.3860 Y39.7071
G01 X61.3221 Y39.6210
G01 X61.2670 Y39.5291
G01 X61.2212 Y39.4323
G01 X61.1851 Y39.3314
G01 X61.1591 Y39.2274
G01 X61.1434 Y39.1214
G01 X61.1383 Y39.0244
G00 Z2.0000
G00 X63.6783 Y39.0244
G01 F60.00
G01 Z-0.3000
G01 F200.00
G01 X63.6783 Y39.0044
G01 X63.6834 Y38.9074
G01 X63.6991 Y38.8014
G01 X63.7251 Y38.6974
G01 X63.7612 Y38.5965
G01 X63.8070 Y38.4997
G01 X63.8621 Y38.4078
G01 X63.9260 Y38.3217
G01 X63.9979 Y38.2423
G01 X64.0773 Y38.1704
G01 X64.1634 Y38.1065
G01 X64.2553 Y38.0514
G01 X64.3521 Y38.0056
G01 X64.4530 Y37.9695
G01 X64.5570 Y37.9435
G01 X64.6630 Y37.9278
G01 X64.7700 Y37.9225
G01 X64.8770 Y37.9278
G01 X64.9830 Y37.9435
G01 X65.0870 Y37.9695
G01 X65.1879 Y38.0056
G01 X65.2847 Y38.0514
G01 X65.3766 Y38.1065
G01 X65.4627 Y38.1704
G01 X65.5421 Y38.2423
G01 X65.6140 Y38.3217
G01 X65.6779 Y38.4078
G01 X65.7330 Y38.4997
G01 X65.7788 Y38.5965
G01 X65.8149 Y38.6974
G01 X65.8409 Y38.8014
G01 X65.8566 Y38.9074
G01 X65.8619 Y39.0144
G01 X65.8566 Y39.1214
G01 X65.8409 Y39.2274
G01 X65.8149 Y39.3314
G01 X65.7788 Y39.4323
G01 X65.7330 Y39.5291
G01 X65.6779 Y39.6210
G01 X65.6140 Y39.7071
G01 X65.5421 Y39.7865
G01 X65.4627 Y39.8584
G01 X65.3766 Y39.9223
G01 X65.2847 Y39.9774
G01 X65.1879 Y40.0232
G01 X65.0870 Y40.0593
G01 X64.9830 Y40.0853
G01 X64.8770 Y40.1010
G01 X64.7700 Y40.1063
G01 X64.6630 Y40.1010
G01 X64.5570 Y40.0853
G01 X64.4530 Y40.0593
G01 X64.3521 Y40.0232
G01 X64.2553 Y39.9774
G01 X64.1634 Y39.9223
G01 X64.0773 Y39.8584
G01 X63.9979 Y39.7865
G01 X63.9260 Y39.7071
G01 X63.8621 Y39.6210
G01 X63.8070 Y39.5291
G01 X63.7612 Y39.4323
G01 X63.7251 Y39.3314
G01 X63.6991 Y39.2274
G01 X63.6834 Y39.1214
G01 X63.6783 Y39.0244
G00 Z2.0000
G00 X56.2610 Y48.0031
G01 F60.00
G01 Z-0.3000
G01 F200.00
G01 X56.3373 Y39.7420
G01 X56.3125 Y39.7146
G01 X56.3028 Y39.7032
G01 X56.2449 Y39.6251
G01 X56.2368 Y39.6126
G01 X56.1894 Y39.5335
G01 X56.1826 Y39.5202
G01 X56.1412 Y39.4323
G01 X56.1066 Y39.3361
G01 X56.1025 Y39.3218
G01 X56.0791 Y39.2274
G01 X56.0634 Y39.1214
G01 X56.0581 Y39.0144
G01 X56.0629 Y38.9123
G01 X56.0646 Y38.8975
G01 X56.0791 Y38.8014
G01 X56.1025 Y38.7070
G01 X56.1082 Y38.6880
G01 X56.1376 Y38.6058
G01 X56.1453 Y38.5874
G01 X56.1870 Y38.4997
G01 X56.2421 Y38.4078
G01 X56.3060 Y38.3217
G01 X56.3779 Y38.2423
G01 X56.4573 Y38.1704
G01 X56.5434 Y38.1065
G01 X56.6353 Y38.0514
G01 X56.7230 Y38.0097
G01 X56.7414 Y38.0020
G01 X56.8236 Y37.9726
G01 X56.8426 Y37.9669
G01 X56.9370 Y37.9435
G01 X57.0331 Y37.9290
G01 X57.0479 Y37.9273
G01 X57.1500 Y37.9225
G01 X57.2570 Y37.9278
G01 X57.3630 Y37.9435
G01 X57.4670 Y37.9695
G01 X57.5679 Y38.0056
G01 X57.6647 Y38.0514
G01 X57.7566 Y38.1065
G01 X57.8427 Y38.1704
G01 X57.9221 Y38.2423
G01 X57.9940 Y38.3217
G01 X58.0579 Y38.4078
G01 X58.1130 Y38.4997
G01 X58.1588 Y38.5965
G01 X58.1949 Y38.6974
G01 X58.2209 Y38.8014
G01 X58.2366 Y38.9074
G01 X58.2419 Y39.0144
G01 X58.2366 Y39.1214
G01 X58.2209 Y39.2274
G01 X58.1975 Y39.3218
G01 X58.1934 Y39.3361
G01 X58.1588 Y39.4323
G01 X58.1174 Y39.5202
G01 X58.1106 Y39.5335
G01 X58.0632 Y39.6126
G01 X58.0551 Y39.6251
G01 X57.9972 Y39.7032
G01 X57.9875 Y39.7146
G01 X57.9624 Y39.7424
G01 X57.9628 Y39.7585
G01 X57.8942 Y47.1915
G01 X68.2244 Y47.1695
G01 X68.2244 Y19.8120
G01 X61.2394 Y19.8120
G01 X61.1697 Y19.8088
G01 X61.1548 Y19.8075
G01 X61.0857 Y19.7973
G01 X61.0760 Y19.7954
G01 X61.0626 Y19.7921
G01 X61.0439 Y19.8126
G01 X61.0368 Y19.8197
G01 X60.9602 Y19.8891
G01 X60.9485 Y19.8985
G01 X60.8694 Y19.9571
G01 X60.8569 Y19.9652
G01 X60.7681 Y20.0182
G01 X60.6747 Y20.0626
G01 X60.6609 Y20.0685
G01 X60.5683 Y20.1017
G01 X60.5492 Y20.1075
G01 X60.4488 Y20.1324
G01 X60.3465 Y20.1478
G01 X60.3267 Y20.1498
G01 X60.2234 Y20.1546
G01 X60.1102 Y20.1490
G01 X59.9980 Y20.1324
G01 X59.8880 Y20.1048
G01 X59.7812 Y20.0666
G01 X59.6787 Y20.0182
G01 X59.5815 Y19.9599
G01 X59.4904 Y19.8923
G01 X59.4064 Y19.8162
G01 X59.3368 Y19.7397
G01 X59.3241 Y19.7243
G01 X59.2627 Y19.6411
G01 X59.2044 Y19.5439
G01 X59.1560 Y19.4414
G01 X59.1209 Y19.3441
G01 X59.1151 Y19.3250
G01 X59.0924 Y19.2343
G01 X59.0885 Y19.2148
G01 X59.0736 Y19.1124
G01 X59.0682 Y19.0092
G01 X59.0682 Y18.9892
G01 X59.0736 Y18.8860
G01 X59.0902 Y18.7738
G01 X59.1178 Y18.6638
G01 X59.1560 Y18.5570
G01 X59.2044 Y18.4545
G01 X59.2627 Y18.3573
G01 X59.3303 Y18.2662
G01 X59.3995 Y18.1894
G01 X59.4136 Y18.1753
G01 X59.4829 Y18.1126
G01 X59.4983 Y18.0999
G01 X59.5815 Y18.0385
G01 X59.6701 Y17.9851
G01 X59.6876 Y17.9758
G01 X59.7812 Y17.9318
G01 X59.8880 Y17.8936
G01 X59.9980 Y17.8660
G01 X60.1003 Y17.8506
G01 X60.1151 Y17.8489
G01 X60.2134 Y17.8440
G01 X60.2334 Y17.8440
G01 X60.3366 Y17.8494
G01 X60.4390 Y17.8643
G01 X60.4585 Y17.8682
G01 X60.5588 Y17.8936
G01 X60.6609 Y17.9299
G01 X60.6747 Y17.9358
G01 X60.7681 Y17.9802
G01 X60.8569 Y18.0332
G01 X60.8694 Y18.0413
G01 X60.9485 Y18.0999
G01 X60.9602 Y18.1093
G01 X61.0368 Y18.1787
G01 X61.0439 Y18.1858
G01 X61.0626 Y18.2063
G01 X61.0760 Y18.2030
G01 X61.0857 Y18.2011
G01 X61.1548 Y18.1909
G01 X61.1697 Y18.1896
G01 X61.2394 Y18.1864
G01 X69.0372 Y18.1864
G01 X69.1169 Y18.1903
G01 X69.1958 Y18.2020
G01 X69.2731 Y18.2214
G01 X69.3390 Y18.2447
G01 X69.3528 Y18.2502
G01 X69.4204 Y18.2824
G01 X69.4804 Y18.3181
G01 X69.4969 Y18.3291
G01 X69.5528 Y18.3709
G01 X69.6119 Y18.4245
G01 X69.6590 Y18.4760
G01 X69.6716 Y18.4914
G01 X69.7130 Y18.5476
G01 X69.7540 Y18.6160
G01 X69.7841 Y18.6790
G01 X69.7917 Y18.6974
G01 X69.8150 Y18.7633
G01 X69.8322 Y18.8309
G01 X69.8361 Y18.8504
G01 X69.8461 Y18.9195
G01 X69.8499 Y18.9942
G01 X69.8500 Y47.9806
G01 X69.8470 Y48.0486
G01 X69.8461 Y48.0601
G01 X69.8364 Y48.1277
G01 X69.8344 Y48.1390
G01 X69.8181 Y48.2053
G01 X69.8151 Y48.2163
G01 X69.7924 Y48.2808
G01 X69.7862 Y48.2961
G01 X69.7547 Y48.3624
G01 X69.7491 Y48.3724
G01 X69.7193 Y48.4223
G01 X69.7139 Y48.4309
G01 X69.7073 Y48.4403
G01 X69.6727 Y48.4870
G01 X69.6656 Y48.4961
G01 X69.6200 Y48.5469
G01 X69.6121 Y48.5552
G01 X69.6047 Y48.5622
G01 X69.5617 Y48.6013
G01 X69.5530 Y48.6088
G01 X69.4900 Y48.6556
G01 X69.4804 Y48.6617
G01 X69.4305 Y48.6917
G01 X69.4217 Y48.6967
G01 X69.4115 Y48.7019
G01 X69.3589 Y48.7268
G01 X69.3484 Y48.7314
G01 X69.2746 Y48.7580
G01 X69.2635 Y48.7611
G01 X69.2072 Y48.7752
G01 X69.1973 Y48.7775
G01 X69.1860 Y48.7795
G01 X69.1184 Y48.7893
G01 X69.1069 Y48.7902
G01 X69.0489 Y48.7931
G01 X57.0613 Y48.8187
G01 X57.0008 Y48.8155
G01 X56.9867 Y48.8141
G01 X56.9267 Y48.8052
G01 X56.9079 Y48.8017
G01 X56.8491 Y48.7869
G01 X56.8307 Y48.7816
G01 X56.7736 Y48.7612
G01 X56.7558 Y48.7540
G01 X56.7011 Y48.7281
G01 X56.6840 Y48.7193
G01 X56.6321 Y48.6881
G01 X56.6160 Y48.6776
G01 X56.5674 Y48.6415
G01 X56.5524 Y48.6295
G01 X56.5075 Y48.5888
G01 X56.4938 Y48.5754
G01 X56.4531 Y48.5305
G01 X56.4408 Y48.5158
G01 X56.4047 Y48.4671
G01 X56.3938 Y48.4513
G01 X56.3627 Y48.3993
G01 X56.3535 Y48.3825
G01 X56.3276 Y48.3277
G01 X56.3200 Y48.3101
G01 X56.2996 Y48.2530
G01 X56.2939 Y48.2348
G01 X56.2792 Y48.1760
G01 X56.2752 Y48.1572
G01 X56.2663 Y48.0973
G01 X56.2642 Y48.0782
G01 X56.2613 Y48.0177
G01 X56.2610 Y48.0031
G00 Z2.0000
G00 X53.3457 Y45.1046
G01 F60.00
G01 Z-0.3000
G01 F200.00
G01 X53.3402 Y45.0265
G01 X53.3424 Y44.9468
G01 X53.7234 Y39.9684
G01 X53.7333 Y39.8892
G01 X53.7486 Y39.8211
G01 X53.7540 Y39.8019
G01 X53.7729 Y39.7452
G01 X53.7763 Y39.7358
G01 X53.7812 Y39.7242
G01 X53.7692 Y39.7109
G01 X53.7628 Y39.7032
G01 X53.7049 Y39.6251
G01 X53.6968 Y39.6126
G01 X53.6470 Y39.5291
G01 X53.6012 Y39.4323
G01 X53.5682 Y39.3408
G01 X53.5625 Y39.3218
G01 X53.5413 Y39.2371
G01 X53.5374 Y39.2176
G01 X53.5234 Y39.1214
G01 X53.5183 Y39.0244
G01 X53.5183 Y39.0044
G01 X53.5234 Y38.9074
G01 X53.5391 Y38.8014
G01 X53.5651 Y38.6974
G01 X53.6012 Y38.5965
G01 X53.6470 Y38.4997
G01 X53.7021 Y38.4078
G01 X53.7660 Y38.3217
G01 X53.8379 Y38.2423
G01 X53.9173 Y38.1704
G01 X54.0034 Y38.1065
G01 X54.0953 Y38.0514
G01 X54.1921 Y38.0056
G01 X54.2930 Y37.9695
G01 X54.3970 Y37.9435
G01 X54.5030 Y37.9278
G01 X54.6100 Y37.9225
G01 X54.7170 Y37.9278
G01 X54.8230 Y37.9435
G01 X54.9270 Y37.9695
G01 X55.0279 Y38.0056
G01 X55.1247 Y38.0514
G01 X55.2082 Y38.1012
G01 X55.2248 Y38.1123
G01 X55.2948 Y38.1642
G01 X55.3102 Y38.1769
G01 X55.3821 Y38.2423
G01 X55.4540 Y38.3217
G01 X55.5179 Y38.4078
G01 X55.5681 Y38.4910
G01 X55.5774 Y38.5086
G01 X55.6147 Y38.5874
G01 X55.6224 Y38.6058
G01 X55.6549 Y38.6974
G01 X55.6809 Y38.8014
G01 X55.6966 Y38.9074
G01 X55.7019 Y39.0144
G01 X55.6966 Y39.1214
G01 X55.6809 Y39.2274
G01 X55.6549 Y39.3314
G01 X55.6224 Y39.4230
G01 X55.6147 Y39.4414
G01 X55.5730 Y39.5291
G01 X55.5232 Y39.6126
G01 X55.5121 Y39.6292
G01 X55.4602 Y39.6992
G01 X55.4475 Y39.7146
G01 X55.3821 Y39.7865
G01 X55.3236 Y39.8398
G01 X55.3273 Y39.8545
G01 X55.3293 Y39.8643
G01 X55.3393 Y39.9233
G01 X55.3417 Y39.9430
G01 X55.3464 Y40.0127
G01 X55.3442 Y40.0924
G01 X54.9632 Y45.0708
G01 X54.9533 Y45.1500
G01 X54.9380 Y45.2181
G01 X54.9354 Y45.2282
G01 X54.9632 Y45.2589
G01 X54.9728 Y45.2703
G01 X55.0345 Y45.3534
G01 X55.0426 Y45.3659
G01 X55.0932 Y45.4504
G01 X55.1000 Y45.4636
G01 X55.1440 Y45.5572
G01 X55.1807 Y45.6593
G01 X55.1849 Y45.6736
G01 X55.2098 Y45.7740
G01 X55.2264 Y45.8862
G01 X55.2320 Y45.9994
G01 X55.2272 Y46.1027
G01 X55.2259 Y46.1176
G01 X55.2098 Y46.2248
G01 X55.1822 Y46.3348
G01 X55.1440 Y46.4416
G01 X55.0956 Y46.5441
G01 X55.0373 Y46.6413
G01 X54.9697 Y46.7324
G01 X54.8936 Y46.8164
G01 X54.8096 Y46.8925
G01 X54.7185 Y46.9601
G01 X54.6213 Y47.0184
G01 X54.5188 Y47.0668
G01 X54.4120 Y47.1050
G01 X54.3020 Y47.1326
G01 X54.1898 Y47.1492
G01 X54.0766 Y47.1548
G01 X53.9634 Y47.1492
G01 X53.8512 Y47.1326
G01 X53.7412 Y47.1050
G01 X53.6344 Y47.0668
G01 X53.5319 Y47.0184
G01 X53.4347 Y46.9601
G01 X53.3436 Y46.8925
G01 X53.2596 Y46.8164
G01 X53.1835 Y46.7324
G01 X53.1159 Y46.6413
G01 X53.0576 Y46.5441
G01 X53.0092 Y46.4416
G01 X52.9710 Y46.3348
G01 X52.9434 Y46.2248
G01 X52.9268 Y46.1126
G01 X52.9212 Y45.9994
G01 X52.9268 Y45.8862
G01 X52.9434 Y45.7740
G01 X52.9710 Y45.6640
G01 X53.0092 Y45.5572
G01 X53.0576 Y45.4547
G01 X53.1159 Y45.3575
G01 X53.1835 Y45.2664
G01 X53.2596 Y45.1824
G01 X53.3361 Y45.1128
G01 X53.3457 Y45.1046
G00 Z2.0000
G00 X53.9880 Y52.9517
G01 F60.00
G01 Z-0.3000
G01 F200.00
G01 X53.9733 Y52.9625
G01 X53.9606 Y52.9703
G01 X53.9428 Y52.9793
G01 X53.9289 Y52.9848
G01 X53.9147 Y52.9893
G01 X53.9002 Y52.9928
G01 X53.8805 Y52.9957
G01 X53.8656 Y52.9966
G01 X52.2606 Y52.9967
G01 X52.2407 Y52.9957
G01 X52.2210 Y52.9928
G01 X52.2017 Y52.9880
G01 X52.1830 Y52.9813
G01 X52.1650 Y52.9727
G01 X52.1479 Y52.9625
G01 X52.1319 Y52.9506
G01 X52.1171 Y52.9373
G01 X52.1038 Y52.9225
G01 X52.0919 Y52.9065
G01 X52.0817 Y52.8894
G01 X52.0731 Y52.8714
G01 X52.0664 Y52.8527
G01 X52.0616 Y52.8334
G01 X52.0587 Y52.8137
G01 X52.0577 Y52.7938
G01 X52.0578 Y51.1888
G01 X52.0592 Y51.1690
G01 X52.0626 Y51.1493
G01 X52.0679 Y51.1302
G01 X52.0751 Y51.1116
G01 X52.0841 Y51.0938
G01 X52.0947 Y51.0770
G01 X52.1070 Y51.0613
G01 X52.1171 Y51.0503
G01 X52.1319 Y51.0370
G01 X52.1479 Y51.0251
G01 X52.1606 Y51.0173
G01 X52.1784 Y51.0083
G01 X52.1970 Y51.0011
G01 X52.2161 Y50.9958
G01 X52.2358 Y50.9924
G01 X52.2556 Y50.9910
G01 X53.8606 Y50.9909
G01 X53.8755 Y50.9915
G01 X53.8904 Y50.9931
G01 X53.9002 Y50.9948
G01 X53.9147 Y50.9983
G01 X53.9336 Y51.0045
G01 X53.9428 Y51.0083
G01 X53.9562 Y51.0149
G01 X53.9691 Y51.0224
G01 X53.9774 Y51.0279
G01 X53.9854 Y51.0338
G01 X53.9969 Y51.0435
G01 X54.0075 Y51.0539
G01 X54.0142 Y51.0613
G01 X54.0236 Y51.0729
G01 X54.0293 Y51.0811
G01 X54.0395 Y51.0982
G01 X54.0481 Y51.1162
G01 X54.0548 Y51.1349
G01 X54.0596 Y51.1542
G01 X54.0625 Y51.1739
G01 X54.0635 Y51.1938
G01 X54.0635 Y51.3200
G01 X59.3748 Y52.0891
G01 X59.4291 Y52.0491
G01 X59.5220 Y51.9932
G01 X59.5352 Y51.9864
G01 X59.6243 Y51.9443
G01 X59.6381 Y51.9388
G01 X59.7356 Y51.9042
G01 X59.8407 Y51.8776
G01 X59.8554 Y51.8749
G01 X59.9578 Y51.8600
G01 X60.0710 Y51.8544
G01 X60.1842 Y51.8600
G01 X60.2866 Y51.8749
G01 X60.3013 Y51.8776
G01 X60.4064 Y51.9042
G01 X60.5132 Y51.9424
G01 X60.6157 Y51.9908
G01 X60.7045 Y52.0438
G01 X60.7210 Y52.0549
G01 X60.7961 Y52.1105
G01 X60.8115 Y52.1232
G01 X60.8880 Y52.1928
G01 X60.9641 Y52.2768
G01 X61.0317 Y52.3679
G01 X61.0900 Y52.4651
G01 X61.1384 Y52.5676
G01 X61.1735 Y52.6649
G01 X61.1793 Y52.6840
G01 X61.2020 Y52.7747
G01 X61.2059 Y52.7942
G01 X61.2208 Y52.8966
G01 X61.2264 Y53.0098
G01 X61.2208 Y53.1230
G01 X61.2042 Y53.2352
G01 X61.1766 Y53.3452
G01 X61.1384 Y53.4520
G01 X61.0900 Y53.5545
G01 X61.0317 Y53.6517
G01 X60.9641 Y53.7428
G01 X60.8880 Y53.8268
G01 X60.8040 Y53.9029
G01 X60.7129 Y53.9705
G01 X60.6157 Y54.0288
G01 X60.5132 Y54.0772
G01 X60.4064 Y54.1154
G01 X60.2964 Y54.1430
G01 X60.1842 Y54.1596
G01 X60.0710 Y54.1652
G01 X59.9578 Y54.1596
G01 X59.8554 Y54.1447
G01 X59.8359 Y54.1408
G01 X59.7356 Y54.1154
G01 X59.6381 Y54.0808
G01 X59.6197 Y54.0732
G01 X59.5308 Y54.0311
G01 X59.5177 Y54.0239
G01 X59.4291 Y53.9705
G01 X59.3459 Y53.9091
G01 X59.3342 Y53.8997
G01 X59.2612 Y53.8337
G01 X59.2505 Y53.8232
G01 X59.1811 Y53.7466
G01 X59.1717 Y53.7349
G01 X59.1446 Y53.6983
G01 X53.9880 Y52.9517
G00 Z2.0000
G00 X43.9975 Y46.8725
G01 F60.00
G01 Z-0.3000
G01 F200.00
G01 X47.3703 Y41.5511
G01 X47.3838 Y41.5305
G01 X47.4103 Y41.4939
G01 X47.4285 Y41.4706
G01 X47.4650 Y41.4292
G01 X47.4856 Y41.4080
G01 X47.5224 Y41.3738
G01 X47.5412 Y41.3579
G01 X47.5890 Y41.3215
G01 X47.6094 Y41.3077
G01 X47.6565 Y41.2788
G01 X47.6781 Y41.2671
G01 X47.7232 Y41.2451
G01 X47.7504 Y41.2334
G01 X47.8021 Y41.2143
G01 X47.8256 Y41.2070
G01 X47.8694 Y41.1955
G01 X47.8790 Y41.1931
G01 X47.9031 Y41.1881
G01 X47.9527 Y41.1801
G01 X47.9821 Y41.1769
G01 X48.0322 Y41.1738
G01 X48.0568 Y41.1734
G01 X51.2572 Y41.1734
G01 X51.2574 Y39.7422
G01 X51.2325 Y39.7146
G01 X51.2228 Y39.7032
G01 X51.1679 Y39.6292
G01 X51.1594 Y39.6169
G01 X51.1070 Y39.5291
G01 X51.0632 Y39.4368
G01 X51.0576 Y39.4230
G01 X51.0251 Y39.3314
G01 X51.0013 Y39.2371
G01 X50.9974 Y39.2176
G01 X50.9846 Y39.1313
G01 X50.9826 Y39.1115
G01 X50.9781 Y39.0144
G01 X50.9826 Y38.9173
G01 X50.9846 Y38.8975
G01 X50.9991 Y38.8014
G01 X51.0251 Y38.6974
G01 X51.0576 Y38.6058
G01 X51.0653 Y38.5874
G01 X51.1070 Y38.4997
G01 X51.1621 Y38.4078
G01 X51.2198 Y38.3296
G01 X51.2325 Y38.3142
G01 X51.2979 Y38.2423
G01 X51.3698 Y38.1769
G01 X51.3852 Y38.1642
G01 X51.4634 Y38.1065
G01 X51.5553 Y38.0514
G01 X51.6430 Y38.0097
G01 X51.6614 Y38.0020
G01 X51.7436 Y37.9726
G01 X51.7626 Y37.9669
G01 X51.8570 Y37.9435
G01 X51.9531 Y37.9290
G01 X51.9729 Y37.9270
G01 X52.0700 Y37.9225
G01 X52.1770 Y37.9278
G01 X52.2830 Y37.9435
G01 X52.3774 Y37.9669
G01 X52.3964 Y37.9726
G01 X52.4786 Y38.0020
G01 X52.4970 Y38.0097
G01 X52.5847 Y38.0514
G01 X52.6682 Y38.1012
G01 X52.6848 Y38.1123
G01 X52.7627 Y38.1704
G01 X52.8349 Y38.2354
G01 X52.8456 Y38.2459
G01 X52.9140 Y38.3217
G01 X52.9779 Y38.4078
G01 X53.0330 Y38.4997
G01 X53.0788 Y38.5965
G01 X53.1149 Y38.6974
G01 X53.1409 Y38.8014
G01 X53.1566 Y38.9074
G01 X53.1617 Y39.0044
G01 X53.1617 Y39.0244
G01 X53.1566 Y39.1214
G01 X53.1409 Y39.2274
G01 X53.1149 Y39.3314
G01 X53.0806 Y39.4276
G01 X53.0747 Y39.4414
G01 X53.0330 Y39.5291
G01 X52.9806 Y39.6169
G01 X52.9721 Y39.6292
G01 X52.9172 Y39.7032
G01 X52.9075 Y39.7146
G01 X52.8826 Y39.7422
G01 X52.8828 Y41.9862
G01 X52.8793 Y42.0609
G01 X52.8777 Y42.0758
G01 X52.8672 Y42.1448
G01 X52.8505 Y42.2125
G01 X52.8447 Y42.2316
G01 X52.8245 Y42.2880
G01 X52.8169 Y42.3064
G01 X52.7868 Y42.3694
G01 X52.7458 Y42.4378
G01 X52.6983 Y42.5018
G01 X52.6516 Y42.5537
G01 X52.6412 Y42.5644
G01 X52.5856 Y42.6145
G01 X52.5216 Y42.6620
G01 X52.4532 Y42.7030
G01 X52.3902 Y42.7331
G01 X52.3718 Y42.7407
G01 X52.3154 Y42.7609
G01 X52.2963 Y42.7667
G01 X52.2286 Y42.7834
G01 X52.1596 Y42.7939
G01 X52.1397 Y42.7958
G01 X52.0700 Y42.7990
G01 X48.5040 Y42.7990
G01 X45.3525 Y47.7713
G01 X45.3563 Y47.7904
G01 X45.3712 Y47.8928
G01 X45.3768 Y48.0060
G01 X45.3712 Y48.1192
G01 X45.3546 Y48.2314
G01 X45.3270 Y48.3414
G01 X45.2888 Y48.4482
G01 X45.2404 Y48.5507
G01 X45.1848 Y48.6437
G01 X45.1763 Y48.6560
G01 X45.1145 Y48.7390
G01 X45.0384 Y48.8230
G01 X44.9544 Y48.8991
G01 X44.8633 Y48.9667
G01 X44.7661 Y49.0250
G01 X44.6636 Y49.0734
G01 X44.5568 Y49.1116
G01 X44.4468 Y49.1392
G01 X44.3346 Y49.1558
G01 X44.2214 Y49.1614
G01 X44.1082 Y49.1558
G01 X43.9960 Y49.1392
G01 X43.8860 Y49.1116
G01 X43.7792 Y49.0734
G01 X43.6767 Y49.0250
G01 X43.5795 Y48.9667
G01 X43.4884 Y48.8991
G01 X43.4044 Y48.8230
G01 X43.3283 Y48.7390
G01 X43.2607 Y48.6479
G01 X43.2024 Y48.5507
G01 X43.1540 Y48.4482
G01 X43.1158 Y48.3414
G01 X43.0882 Y48.2314
G01 X43.0716 Y48.1192
G01 X43.0660 Y48.0060
G01 X43.0716 Y47.8928
G01 X43.0882 Y47.7806
G01 X43.1158 Y47.6706
G01 X43.1540 Y47.5638
G01 X43.2024 Y47.4613
G01 X43.2607 Y47.3641
G01 X43.3283 Y47.2730
G01 X43.4044 Y47.1890
G01 X43.4884 Y47.1129
G01 X43.5795 Y47.0453
G01 X43.6767 Y46.9870
G01 X43.7792 Y46.9386
G01 X43.8860 Y46.9004
G01 X43.9863 Y46.8750
G01 X43.9975 Y46.8725
G00 Z2.0000
G00 X39.2839 Y50.9832
G01 F60.00
G01 Z-0.3000
G01 F200.00
G01 X39.2723 Y50.9051
G01 X39.2684 Y50.8254
G01 X39.2684 Y42.9768
G01 X39.2723 Y42.8971
G01 X39.2840 Y42.8182
G01 X39.3034 Y42.7409
G01 X39.3267 Y42.6750
G01 X39.3322 Y42.6612
G01 X39.3599 Y42.6025
G01 X39.3693 Y42.5850
G01 X39.4054 Y42.5252
G01 X39.4468 Y42.4690
G01 X39.4594 Y42.4536
G01 X39.5065 Y42.4021
G01 X39.5580 Y42.3550
G01 X39.5734 Y42.3424
G01 X39.6296 Y42.3010
G01 X39.6894 Y42.2649
G01 X39.7069 Y42.2555
G01 X39.7702 Y42.2259
G01 X39.8358 Y42.2021
G01 X39.8549 Y42.1963
G01 X39.9226 Y42.1796
G01 X39.9966 Y42.1685
G01 X40.0115 Y42.1672
G01 X40.0812 Y42.1640
G01 X43.3296 Y42.1640
G01 X43.5398 Y39.9487
G01 X43.5506 Y39.8747
G01 X43.5684 Y39.8021
G01 X43.5728 Y39.7878
G01 X43.5945 Y39.7267
G01 X43.5983 Y39.7175
G01 X43.6042 Y39.7048
G01 X43.5479 Y39.6292
G01 X43.5368 Y39.6126
G01 X43.4870 Y39.5291
G01 X43.4453 Y39.4414
G01 X43.4376 Y39.4230
G01 X43.4051 Y39.3314
G01 X43.3813 Y39.2371
G01 X43.3774 Y39.2176
G01 X43.3634 Y39.1214
G01 X43.3583 Y39.0244
G01 X43.3583 Y39.0044
G01 X43.3634 Y38.9074
G01 X43.3774 Y38.8112
G01 X43.3813 Y38.7917
G01 X43.4051 Y38.6974
G01 X43.4376 Y38.6058
G01 X43.4453 Y38.5874
G01 X43.4870 Y38.4997
G01 X43.5421 Y38.4078
G01 X43.6060 Y38.3217
G01 X43.6779 Y38.2423
G01 X43.7573 Y38.1704
G01 X43.8434 Y38.1065
G01 X43.9353 Y38.0514
G01 X44.0321 Y38.0056
G01 X44.1330 Y37.9695
G01 X44.2370 Y37.9435
G01 X44.3430 Y37.9278
G01 X44.4500 Y37.9225
G01 X44.5570 Y37.9278
G01 X44.6630 Y37.9435
G01 X44.7670 Y37.9695
G01 X44.8586 Y38.0020
G01 X44.8724 Y38.0076
G01 X44.9647 Y38.0514
G01 X45.0482 Y38.1012
G01 X45.0648 Y38.1123
G01 X45.1427 Y38.1704
G01 X45.2221 Y38.2423
G01 X45.2875 Y38.3142
G01 X45.3002 Y38.3296
G01 X45.3579 Y38.4078
G01 X45.4130 Y38.4997
G01 X45.4547 Y38.5874
G01 X45.4624 Y38.6058
G01 X45.4949 Y38.6974
G01 X45.5209 Y38.8014
G01 X45.5354 Y38.8975
G01 X45.5374 Y38.9173
G01 X45.5417 Y39.0044
G01 X45.5418 Y39.0194
G01 X45.5366 Y39.1214
G01 X45.5226 Y39.2176
G01 X45.5187 Y39.2371
G01 X45.4949 Y39.3314
G01 X45.4624 Y39.4230
G01 X45.4547 Y39.4414
G01 X45.4174 Y39.5202
G01 X45.4081 Y39.5378
G01 X45.3579 Y39.6210
G01 X45.2940 Y39.7071
G01 X45.2221 Y39.7865
G01 X45.1502 Y39.8519
G01 X45.1426 Y39.8585
G01 X45.1450 Y39.8689
G01 X45.1467 Y39.8787
G01 X45.1557 Y39.9379
G01 X45.1578 Y39.9577
G01 X45.1612 Y40.0274
G01 X45.1576 Y40.1071
G01 X44.8774 Y43.0612
G01 X44.8676 Y43.1278
G01 X44.8640 Y43.1451
G01 X44.8503 Y43.2003
G01 X44.8469 Y43.2124
G01 X44.8246 Y43.2758
G01 X44.8209 Y43.2855
G01 X44.8159 Y43.2970
G01 X44.7870 Y43.3577
G01 X44.7809 Y43.3686
G01 X44.7518 Y43.4175
G01 X44.7421 Y43.4323
G01 X44.7053 Y43.4823
G01 X44.6975 Y43.4922
G01 X44.6527 Y43.5422
G01 X44.6456 Y43.5497
G01 X44.6365 Y43.5584
G01 X44.5906 Y43.6001
G01 X44.5768 Y43.6112
G01 X44.5311 Y43.6452
G01 X44.5209 Y43.6524
G01 X44.4634 Y43.6873
G01 X44.4544 Y43.6924
G01 X44.4433 Y43.6981
G01 X44.3824 Y43.7267
G01 X44.3708 Y43.7313
G01 X44.3074 Y43.7538
G01 X44.2953 Y43.7573
G01 X44.2301 Y43.7735
G01 X44.2178 Y43.7757
G01 X44.1615 Y43.7841
G01 X44.1490 Y43.7857
G01 X44.0819 Y43.7893
G01 X44.0694 Y43.7896
G01 X40.8940 Y43.7896
G01 X40.8940 Y50.8254
G01 X40.8908 Y50.8951
G01 X40.8895 Y50.9100
G01 X40.8793 Y50.9791
G01 X40.8774 Y50.9888
G01 X40.8693 Y51.0211
G01 X40.8797 Y51.0316
G01 X40.9489 Y51.1084
G01 X41.0165 Y51.1995
G01 X41.0748 Y51.2967
G01 X41.1232 Y51.3992
G01 X41.1614 Y51.5060
G01 X41.1890 Y51.6160
G01 X41.2056 Y51.7282
G01 X41.2112 Y51.8414
G01 X41.2056 Y51.9546
G01 X41.1890 Y52.0668
G01 X41.1614 Y52.1768
G01 X41.1268 Y52.2743
G01 X41.1192 Y52.2927
G01 X41.0748 Y52.3861
G01 X41.0218 Y52.4749
G01 X41.0107 Y52.4914
G01 X40.9551 Y52.5665
G01 X40.9424 Y52.5819
G01 X40.8728 Y52.6584
G01 X40.7926 Y52.7313
G01 X40.7809 Y52.7407
G01 X40.6977 Y52.8021
G01 X40.6005 Y52.8604
G01 X40.4980 Y52.9088
G01 X40.3912 Y52.9470
G01 X40.2812 Y52.9746
G01 X40.1690 Y52.9912
G01 X40.0558 Y52.9968
G01 X39.9426 Y52.9912
G01 X39.8304 Y52.9746
G01 X39.7204 Y52.9470
G01 X39.6136 Y52.9088
G01 X39.5111 Y52.8604
G01 X39.4139 Y52.8021
G01 X39.3228 Y52.7345
G01 X39.2388 Y52.6584
G01 X39.1659 Y52.5782
G01 X39.1565 Y52.5665
G01 X39.0951 Y52.4833
G01 X39.0368 Y52.3861
G01 X38.9884 Y52.2836
G01 X38.9502 Y52.1768
G01 X38.9226 Y52.0668
G01 X38.9060 Y51.9546
G01 X38.9004 Y51.8414
G01 X38.9055 Y51.7331
G01 X38.9072 Y51.7183
G01 X38.9226 Y51.6160
G01 X38.9502 Y51.5060
G01 X38.9884 Y51.3992
G01 X39.0345 Y51.3012
G01 X39.0417 Y51.2881
G01 X39.0951 Y51.1995
G01 X39.1596 Y51.1123
G01 X39.1692 Y51.1009
G01 X39.2353 Y51.0280
G01 X39.2460 Y51.0175
G01 X39.2839 Y50.9832
G00 Z2.0000
G00 X33.2486 Y50.9913
G01 F60.00
G01 Z-0.3000
G01 F200.00
G01 X33.2486 Y48.8270
G01 X33.2375 Y48.8158
G01 X33.1748 Y48.7465
G01 X33.1621 Y48.7311
G01 X33.1007 Y48.6479
G01 X33.0473 Y48.5593
G01 X33.0380 Y48.5418
G01 X32.9940 Y48.4482
G01 X32.9589 Y48.3509
G01 X32.9531 Y48.3318
G01 X32.9282 Y48.2314
G01 X32.9128 Y48.1291
G01 X32.9108 Y48.1093
G01 X32.9060 Y48.0060
G01 X32.9108 Y47.9027
G01 X32.9128 Y47.8829
G01 X32.9282 Y47.7806
G01 X32.9544 Y47.6754
G01 X32.9589 Y47.6611
G01 X32.9940 Y47.5638
G01 X33.0424 Y47.4613
G01 X33.1007 Y47.3641
G01 X33.1683 Y47.2730
G01 X33.2444 Y47.1890
G01 X33.3284 Y47.1129
G01 X33.4195 Y47.0453
G01 X33.5167 Y46.9870
G01 X33.6192 Y46.9386
G01 X33.7260 Y46.9004
G01 X33.8360 Y46.8728
G01 X33.9482 Y46.8562
G01 X34.0614 Y46.8506
G01 X34.1746 Y46.8562
G01 X34.2868 Y46.8728
G01 X34.3920 Y46.8990
G01 X34.4063 Y46.9035
G01 X34.4943 Y46.9350
G01 X34.5127 Y46.9426
G01 X34.6061 Y46.9870
G01 X34.7033 Y47.0453
G01 X34.7865 Y47.1067
G01 X34.8019 Y47.1194
G01 X34.8784 Y47.1890
G01 X34.9545 Y47.2730
G01 X35.0163 Y47.3560
G01 X35.0274 Y47.3725
G01 X35.0804 Y47.4613
G01 X35.1288 Y47.5638
G01 X35.1670 Y47.6706
G01 X35.1924 Y47.7709
G01 X35.1963 Y47.7904
G01 X35.2112 Y47.8928
G01 X35.2168 Y48.0060
G01 X35.2120 Y48.1093
G01 X35.2100 Y48.1291
G01 X35.1963 Y48.2216
G01 X35.1924 Y48.2411
G01 X35.1670 Y48.3414
G01 X35.1324 Y48.4389
G01 X35.1248 Y48.4573
G01 X35.0804 Y48.5507
G01 X35.0221 Y48.6479
G01 X34.9545 Y48.7390
G01 X34.8853 Y48.8158
G01 X34.8742 Y48.8270
G01 X34.8742 Y50.9913
G01 X34.8912 Y50.9931
G01 X34.9107 Y50.9970
G01 X34.9298 Y51.0028
G01 X34.9481 Y51.0104
G01 X34.9657 Y51.0198
G01 X34.9823 Y51.0308
G01 X34.9977 Y51.0435
G01 X35.0083 Y51.0539
G01 X35.0182 Y51.0651
G01 X35.0301 Y51.0811
G01 X35.0403 Y51.0982
G01 X35.0489 Y51.1162
G01 X35.0541 Y51.1302
G01 X35.0594 Y51.1493
G01 X35.0628 Y51.1690
G01 X35.0642 Y51.1888
G01 X35.0641 Y52.8038
G01 X35.0621 Y52.8236
G01 X35.0582 Y52.8431
G01 X35.0524 Y52.8622
G01 X35.0448 Y52.8805
G01 X35.0354 Y52.8981
G01 X35.0244 Y52.9147
G01 X35.0117 Y52.9301
G01 X34.9977 Y52.9441
G01 X34.9823 Y52.9568
G01 X34.9657 Y52.9678
G01 X34.9526 Y52.9750
G01 X34.9344 Y52.9831
G01 X34.9203 Y52.9880
G01 X34.9010 Y52.9928
G01 X34.8813 Y52.9957
G01 X34.8664 Y52.9966
G01 X33.2614 Y52.9967
G01 X33.2465 Y52.9961
G01 X33.2366 Y52.9952
G01 X33.2169 Y52.9918
G01 X33.1978 Y52.9865
G01 X33.1792 Y52.9793
G01 X33.1702 Y52.9750
G01 X33.1571 Y52.9678
G01 X33.1405 Y52.9568
G01 X33.1251 Y52.9441
G01 X33.1111 Y52.9301
G01 X33.0984 Y52.9147
G01 X33.0874 Y52.8981
G01 X33.0802 Y52.8850
G01 X33.0721 Y52.8668
G01 X33.0659 Y52.8479
G01 X33.0624 Y52.8334
G01 X33.0595 Y52.8137
G01 X33.0586 Y52.7988
G01 X33.0585 Y51.1938
G01 X33.0591 Y51.1789
G01 X33.0607 Y51.1640
G01 X33.0646 Y51.1445
G01 X33.0704 Y51.1254
G01 X33.0759 Y51.1116
G01 X33.0849 Y51.0938
G01 X33.0927 Y51.0811
G01 X33.1046 Y51.0651
G01 X33.1179 Y51.0503
G01 X33.1327 Y51.0370
G01 X33.1487 Y51.0251
G01 X33.1614 Y51.0173
G01 X33.1792 Y51.0083
G01 X33.1978 Y51.0011
G01 X33.2121 Y50.9970
G01 X33.2316 Y50.9931
G01 X33.2486 Y50.9913
G00 Z2.0000
G00 X23.8833 Y46.6608
G01 F60.00
G01 Z-0.3000
G01 F200.00
G01 X23.8730 Y46.6709
G01 X23.7962 Y46.7401
G01 X23.7051 Y46.8077
G01 X23.6079 Y46.8660
G01 X23.5054 Y46.9144
G01 X23.3986 Y46.9526
G01 X23.2886 Y46.9802
G01 X23.1764 Y46.9968
G01 X23.0632 Y47.0024
G01 X22.9500 Y46.9968
G01 X22.8378 Y46.9802
G01 X22.7278 Y46.9526
G01 X22.6210 Y46.9144
G01 X22.5185 Y46.8660
G01 X22.4213 Y46.8077
G01 X22.3302 Y46.7401
G01 X22.2462 Y46.6640
G01 X22.1701 Y46.5800
G01 X22.1025 Y46.4889
G01 X22.0442 Y46.3917
G01 X21.9958 Y46.2892
G01 X21.9576 Y46.1824
G01 X21.9300 Y46.0724
G01 X21.9134 Y45.9602
G01 X21.9078 Y45.8470
G01 X21.9134 Y45.7338
G01 X21.9300 Y45.6216
G01 X21.9576 Y45.5116
G01 X21.9958 Y45.4048
G01 X22.0442 Y45.3023
G01 X22.1025 Y45.2051
G01 X22.1701 Y45.1140
G01 X22.2462 Y45.0300
G01 X22.3302 Y44.9539
G01 X22.4213 Y44.8863
G01 X22.5185 Y44.8280
G01 X22.6210 Y44.7796
G01 X22.7278 Y44.7414
G01 X22.8378 Y44.7138
G01 X22.9500 Y44.6972
G01 X23.0582 Y44.6917
G01 X23.0732 Y44.6918
G01 X23.1764 Y44.6972
G01 X23.2886 Y44.7138
G01 X23.3986 Y44.7414
G01 X23.4961 Y44.7760
G01 X23.5099 Y44.7815
G01 X23.6079 Y44.8280
G01 X23.6967 Y44.8810
G01 X23.7092 Y44.8891
G01 X23.7883 Y44.9477
G01 X23.8000 Y44.9571
G01 X23.8766 Y45.0265
G01 X23.8871 Y45.0372
G01 X23.9217 Y45.0755
G01 X23.9361 Y45.0723
G01 X23.9459 Y45.0706
G01 X24.0152 Y45.0622
G01 X24.0301 Y45.0613
G01 X24.0999 Y45.0599
G01 X28.0877 Y45.1615
G01 X28.1672 Y45.1674
G01 X28.2426 Y45.1804
G01 X28.3246 Y45.1063
G01 X28.4076 Y45.0445
G01 X28.4241 Y45.0334
G01 X28.5043 Y44.9853
G01 X28.5218 Y44.9760
G01 X28.6154 Y44.9320
G01 X28.7127 Y44.8969
G01 X28.7318 Y44.8911
G01 X28.8322 Y44.8662
G01 X28.9444 Y44.8496
G01 X29.0576 Y44.8440
G01 X29.1708 Y44.8496
G01 X29.2830 Y44.8662
G01 X29.3834 Y44.8911
G01 X29.4025 Y44.8969
G01 X29.4905 Y44.9284
G01 X29.5089 Y44.9360
G01 X29.6023 Y44.9804
G01 X29.6995 Y45.0387
G01 X29.7906 Y45.1063
G01 X29.8746 Y45.1824
G01 X29.9507 Y45.2664
G01 X30.0125 Y45.3494
G01 X30.0236 Y45.3659
G01 X30.0717 Y45.4461
G01 X30.0810 Y45.4636
G01 X30.1250 Y45.5572
G01 X30.1632 Y45.6640
G01 X30.1908 Y45.7740
G01 X30.2069 Y45.8812
G01 X30.2082 Y45.8961
G01 X30.2130 Y45.9994
G01 X30.2074 Y46.1126
G01 X30.1908 Y46.2248
G01 X30.1632 Y46.3348
G01 X30.1250 Y46.4416
G01 X30.0766 Y46.5441
G01 X30.0183 Y46.6413
G01 X29.9507 Y46.7324
G01 X29.8746 Y46.8164
G01 X29.7906 Y46.8925
G01 X29.6995 Y46.9601
G01 X29.6023 Y47.0184
G01 X29.4998 Y47.0668
G01 X29.3930 Y47.1050
G01 X29.2830 Y47.1326
G01 X29.1758 Y47.1487
G01 X29.1609 Y47.1500
G01 X29.0576 Y47.1548
G01 X28.9543 Y47.1500
G01 X28.9345 Y47.1480
G01 X28.8322 Y47.1326
G01 X28.7318 Y47.1077
G01 X28.7127 Y47.1019
G01 X28.6201 Y47.0687
G01 X28.6063 Y47.0628
G01 X28.5129 Y47.0184
G01 X28.4241 Y46.9654
G01 X28.4116 Y46.9573
G01 X28.3325 Y46.8987
G01 X28.3208 Y46.8893
G01 X28.2442 Y46.8199
G01 X28.2337 Y46.8092
G01 X28.2030 Y46.7753
G01 X28.1260 Y46.7847
G01 X28.0463 Y46.7865
G01 X24.0585 Y46.6849
G01 X23.9889 Y46.6800
G01 X23.9740 Y46.6783
G01 X23.9052 Y46.6663
G01 X23.8833 Y46.6608
G00 Z2.0000
G00 X17.5703 Y42.9531
G01 F60.00
G01 Z-0.3000
G01 F200.00
G01 X17.6265 Y42.9198
G01 X17.6987 Y42.8858
G01 X21.7627 Y41.2094
G01 X21.8272 Y41.1861
G01 X21.8368 Y41.1830
G01 X21.8474 Y41.1800
G01 X21.9151 Y41.1634
G01 X21.9881 Y41.1525
G01 X22.0040 Y41.1511
G01 X22.0726 Y41.1480
G01 X33.3102 Y41.1480
G01 X33.4040 Y39.9615
G01 X33.4137 Y39.8873
G01 X33.4291 Y39.8192
G01 X33.4345 Y39.8001
G01 X33.4536 Y39.7433
G01 X33.4570 Y39.7340
G01 X33.4611 Y39.7242
G01 X33.4492 Y39.7109
G01 X33.4398 Y39.6992
G01 X33.3879 Y39.6292
G01 X33.3768 Y39.6126
G01 X33.3270 Y39.5291
G01 X33.2853 Y39.4414
G01 X33.2776 Y39.4230
G01 X33.2451 Y39.3314
G01 X33.2191 Y39.2274
G01 X33.2034 Y39.1214
G01 X33.1983 Y39.0244
G01 X33.1983 Y39.0044
G01 X33.2034 Y38.9074
G01 X33.2191 Y38.8014
G01 X33.2451 Y38.6974
G01 X33.2776 Y38.6058
G01 X33.2853 Y38.5874
G01 X33.3226 Y38.5086
G01 X33.3319 Y38.4910
G01 X33.3821 Y38.4078
G01 X33.4398 Y38.3296
G01 X33.4492 Y38.3179
G01 X33.5179 Y38.2423
G01 X33.5898 Y38.1769
G01 X33.6052 Y38.1642
G01 X33.6834 Y38.1065
G01 X33.7753 Y38.0514
G01 X33.8630 Y38.0097
G01 X33.8814 Y38.0020
G01 X33.9730 Y37.9695
G01 X34.0673 Y37.9457
G01 X34.0868 Y37.9418
G01 X34.1830 Y37.9278
G01 X34.2900 Y37.9225
G01 X34.3871 Y37.9270
G01 X34.4069 Y37.9290
G01 X34.5030 Y37.9435
G01 X34.5974 Y37.9669
G01 X34.6164 Y37.9726
G01 X34.6986 Y38.0020
G01 X34.7170 Y38.0097
G01 X34.8047 Y38.0514
G01 X34.8882 Y38.1012
G01 X34.9048 Y38.1123
G01 X34.9827 Y38.1704
G01 X35.0549 Y38.2354
G01 X35.0690 Y38.2495
G01 X35.1340 Y38.3217
G01 X35.1921 Y38.3996
G01 X35.2032 Y38.4162
G01 X35.2530 Y38.4997
G01 X35.2947 Y38.5874
G01 X35.3024 Y38.6058
G01 X35.3349 Y38.6974
G01 X35.3599 Y38.7965
G01 X35.3626 Y38.8112
G01 X35.3766 Y38.9074
G01 X35.3817 Y39.0044
G01 X35.3817 Y39.0244
G01 X35.3766 Y39.1214
G01 X35.3626 Y39.2176
G01 X35.3587 Y39.2371
G01 X35.3375 Y39.3218
G01 X35.3334 Y39.3361
G01 X35.2988 Y39.4323
G01 X35.2574 Y39.5202
G01 X35.2481 Y39.5378
G01 X35.1979 Y39.6210
G01 X35.1402 Y39.6992
G01 X35.1275 Y39.7146
G01 X35.0621 Y39.7865
G01 X35.0035 Y39.8399
G01 X35.0066 Y39.8516
G01 X35.0097 Y39.8662
G01 X35.0196 Y39.9252
G01 X35.0219 Y39.9450
G01 X35.0264 Y40.0146
G01 X35.0241 Y40.0944
G01 X34.8717 Y42.0248
G01 X34.8697 Y42.0454
G01 X34.8615 Y42.1039
G01 X34.8576 Y42.1242
G01 X34.8436 Y42.1816
G01 X34.8377 Y42.2015
G01 X34.8200 Y42.2526
G01 X34.8104 Y42.2764
G01 X34.7855 Y42.3300
G01 X34.7758 Y42.3483
G01 X34.7485 Y42.3950
G01 X34.7344 Y42.4165
G01 X34.6996 Y42.4642
G01 X34.6865 Y42.4802
G01 X34.6506 Y42.5207
G01 X34.6326 Y42.5390
G01 X34.5891 Y42.5790
G01 X34.5731 Y42.5922
G01 X34.5300 Y42.6248
G01 X34.5088 Y42.6393
G01 X34.4584 Y42.6701
G01 X34.4401 Y42.6799
G01 X34.3915 Y42.7035
G01 X34.3678 Y42.7136
G01 X34.3124 Y42.7339
G01 X34.2926 Y42.7400
G01 X34.2402 Y42.7536
G01 X34.2151 Y42.7589
G01 X34.1567 Y42.7680
G01 X34.1361 Y42.7701
G01 X34.0871 Y42.7730
G01 X34.0614 Y42.7736
G01 X22.2337 Y42.7736
G01 X18.3185 Y44.3886
G01 X18.2529 Y44.4122
G01 X18.2386 Y44.4167
G01 X18.1709 Y44.4336
G01 X18.1611 Y44.4355
G01 X18.1343 Y44.4395
G01 X18.0878 Y44.5375
G01 X18.0295 Y44.6347
G01 X17.9619 Y44.7258
G01 X17.8858 Y44.8098
G01 X17.8018 Y44.8859
G01 X17.7107 Y44.9535
G01 X17.6135 Y45.0118
G01 X17.5201 Y45.0562
G01 X17.5063 Y45.0621
G01 X17.4042 Y45.0984
G01 X17.3039 Y45.1238
G01 X17.2844 Y45.1277
G01 X17.1820 Y45.1426
G01 X17.0788 Y45.1480
G01 X17.0588 Y45.1480
G01 X16.9655 Y45.1434
G01 X16.9457 Y45.1414
G01 X16.8434 Y45.1260
G01 X16.7334 Y45.0984
G01 X16.6266 Y45.0602
G01 X16.5286 Y45.0141
G01 X16.5155 Y45.0069
G01 X16.4269 Y44.9535
G01 X16.3358 Y44.8859
G01 X16.2518 Y44.8098
G01 X16.1757 Y44.7258
G01 X16.1081 Y44.6347
G01 X16.0498 Y44.5375
G01 X16.0014 Y44.4350
G01 X15.9632 Y44.3282
G01 X15.9356 Y44.2182
G01 X15.9190 Y44.1060
G01 X15.9134 Y43.9928
G01 X15.9190 Y43.8796
G01 X15.9356 Y43.7674
G01 X15.9632 Y43.6574
G01 X16.0014 Y43.5506
G01 X16.0475 Y43.4526
G01 X16.0547 Y43.4395
G01 X16.1081 Y43.3509
G01 X16.1757 Y43.2598
G01 X16.2518 Y43.1758
G01 X16.3358 Y43.0997
G01 X16.4269 Y43.0321
G01 X16.5241 Y42.9738
G01 X16.6266 Y42.9254
G01 X16.7287 Y42.8887
G01 X16.7430 Y42.8845
G01 X16.8434 Y42.8596
G01 X16.9556 Y42.8430
G01 X17.0688 Y42.8374
G01 X17.1771 Y42.8425
G01 X17.1919 Y42.8442
G01 X17.2942 Y42.8596
G01 X17.3994 Y42.8858
G01 X17.4137 Y42.8903
G01 X17.5063 Y42.9235
G01 X17.5201 Y42.9294
G01 X17.5703 Y42.9531
G00 Z2.0000
G00 X14.3387 Y41.8792
G01 F60.00
G01 Z-0.3000
G01 F200.00
G01 X17.9546 Y39.7292
G01 X17.9671 Y39.6792
G01 X17.9713 Y39.6649
G01 X18.0061 Y39.5675
G01 X18.0120 Y39.5537
G01 X18.0541 Y39.4648
G01 X18.0613 Y39.4517
G01 X18.1147 Y39.3631
G01 X18.1761 Y39.2799
G01 X18.1855 Y39.2682
G01 X18.2515 Y39.1952
G01 X18.2656 Y39.1811
G01 X18.3424 Y39.1119
G01 X18.4254 Y39.0501
G01 X18.4419 Y39.0390
G01 X18.5307 Y38.9860
G01 X18.6241 Y38.9416
G01 X18.6379 Y38.9357
G01 X18.7400 Y38.8994
G01 X18.8500 Y38.8718
G01 X18.9622 Y38.8552
G01 X19.0754 Y38.8496
G01 X19.1886 Y38.8552
G01 X19.3008 Y38.8718
G01 X19.4108 Y38.8994
G01 X19.5176 Y38.9376
G01 X19.6201 Y38.9860
G01 X19.7173 Y39.0443
G01 X19.8084 Y39.1119
G01 X19.8924 Y39.1880
G01 X19.9685 Y39.2720
G01 X20.0361 Y39.3631
G01 X20.0944 Y39.4603
G01 X20.1388 Y39.5537
G01 X20.1447 Y39.5675
G01 X20.1810 Y39.6696
G01 X20.2086 Y39.7796
G01 X20.2252 Y39.8918
G01 X20.2306 Y39.9950
G01 X20.2306 Y40.0150
G01 X20.2260 Y40.1083
G01 X20.2240 Y40.1281
G01 X20.2086 Y40.2304
G01 X20.1810 Y40.3404
G01 X20.1428 Y40.4472
G01 X20.0988 Y40.5408
G01 X20.0895 Y40.5583
G01 X20.0414 Y40.6385
G01 X20.0303 Y40.6550
G01 X19.9685 Y40.7380
G01 X19.8924 Y40.8220
G01 X19.8084 Y40.8981
G01 X19.7254 Y40.9599
G01 X19.7089 Y40.9710
G01 X19.6201 Y41.0240
G01 X19.5176 Y41.0724
G01 X19.4108 Y41.1106
G01 X19.3105 Y41.1360
G01 X19.2959 Y41.1391
G01 X19.1886 Y41.1548
G01 X19.0854 Y41.1602
G01 X19.0704 Y41.1603
G01 X18.9721 Y41.1556
G01 X18.9572 Y41.1543
G01 X18.8549 Y41.1391
G01 X18.8403 Y41.1360
G01 X18.7904 Y41.1235
G01 X15.1969 Y43.2602
G01 X15.1799 Y43.3280
G01 X15.1757 Y43.3423
G01 X15.1426 Y43.4351
G01 X15.1371 Y43.4489
G01 X15.0906 Y43.5469
G01 X15.0376 Y43.6357
G01 X15.0295 Y43.6482
G01 X14.9647 Y43.7352
G01 X14.8886 Y43.8192
G01 X14.8046 Y43.8953
G01 X14.7216 Y43.9571
G01 X14.7051 Y43.9682
G01 X14.6163 Y44.0212
G01 X14.5138 Y44.0696
G01 X14.4070 Y44.1078
G01 X14.2970 Y44.1354
G01 X14.1848 Y44.1520
G01 X14.0716 Y44.1576
G01 X13.9584 Y44.1520
G01 X13.8560 Y44.1371
G01 X13.8413 Y44.1344
G01 X13.7362 Y44.1078
G01 X13.6294 Y44.0696
G01 X13.5269 Y44.0212
G01 X13.4297 Y43.9629
G01 X13.3386 Y43.8953
G01 X13.2546 Y43.8192
G01 X13.1785 Y43.7352
G01 X13.1109 Y43.6441
G01 X13.0526 Y43.5469
G01 X13.0042 Y43.4444
G01 X12.9660 Y43.3376
G01 X12.9384 Y43.2276
G01 X12.9218 Y43.1154
G01 X12.9162 Y43.0022
G01 X12.9218 Y42.8890
G01 X12.9367 Y42.7866
G01 X12.9394 Y42.7719
G01 X12.9660 Y42.6668
G01 X13.0042 Y42.5600
G01 X13.0526 Y42.4575
G01 X13.1109 Y42.3603
G01 X13.1785 Y42.2692
G01 X13.2546 Y42.1852
G01 X13.3386 Y42.1091
G01 X13.4216 Y42.0473
G01 X13.4339 Y42.0388
G01 X13.5269 Y41.9832
G01 X13.6294 Y41.9348
G01 X13.7362 Y41.8966
G01 X13.8365 Y41.8712
G01 X13.8511 Y41.8681
G01 X13.9584 Y41.8524
G01 X14.0616 Y41.8470
G01 X14.0766 Y41.8469
G01 X14.1749 Y41.8516
G01 X14.1898 Y41.8529
G01 X14.2921 Y41.8681
G01 X14.3067 Y41.8712
G01 X14.3387 Y41.8792
G00 Z2.0000
G00 X6.4140 Y43.0122
G01 F60.00
G01 Z-0.3000
G01 F200.00
G01 X6.4140 Y42.9922
G01 X6.4194 Y42.8890
G01 X6.4360 Y42.7768
G01 X6.4636 Y42.6668
G01 X6.5018 Y42.5600
G01 X6.5502 Y42.4575
G01 X6.6085 Y42.3603
G01 X6.6761 Y42.2692
G01 X6.7522 Y42.1852
G01 X6.8362 Y42.1091
G01 X6.9273 Y42.0415
G01 X7.0245 Y41.9832
G01 X7.1270 Y41.9348
G01 X7.2338 Y41.8966
G01 X7.3438 Y41.8690
G01 X7.4560 Y41.8524
G01 X7.5692 Y41.8468
G01 X7.6824 Y41.8524
G01 X7.7946 Y41.8690
G01 X7.9046 Y41.8966
G01 X8.0114 Y41.9348
G01 X8.1139 Y41.9832
G01 X8.2111 Y42.0415
G01 X8.3022 Y42.1091
G01 X8.3862 Y42.1852
G01 X8.4623 Y42.2692
G01 X8.5299 Y42.3603
G01 X8.5882 Y42.4575
G01 X8.6366 Y42.5600
G01 X8.6748 Y42.6668
G01 X8.7024 Y42.7768
G01 X8.7190 Y42.8890
G01 X8.7246 Y43.0022
G01 X8.7190 Y43.1154
G01 X8.7024 Y43.2276
G01 X8.6748 Y43.3376
G01 X8.6366 Y43.4444
G01 X8.5882 Y43.5469
G01 X8.5299 Y43.6441
G01 X8.4623 Y43.7352
G01 X8.3862 Y43.8192
G01 X8.3022 Y43.8953
G01 X8.2111 Y43.9629
G01 X8.1139 Y44.0212
G01 X8.0114 Y44.0696
G01 X7.9046 Y44.1078
G01 X7.7946 Y44.1354
G01 X7.6824 Y44.1520
G01 X7.5692 Y44.1576
G01 X7.4560 Y44.1520
G01 X7.3438 Y44.1354
G01 X7.2338 Y44.1078
G01 X7.1270 Y44.0696
G01 X7.0245 Y44.0212
G01 X6.9273 Y43.9629
G01 X6.8362 Y43.8953
G01 X6.7522 Y43.8192
G01 X6.6761 Y43.7352
G01 X6.6085 Y43.6441
G01 X6.5502 Y43.5469
G01 X6.5018 Y43.4444
G01 X6.4636 Y43.3376
G01 X6.4360 Y43.2276
G01 X6.4194 Y43.1154
G01 X6.4140 Y43.0122
G00 Z2.0000
G00 X6.5978 Y37.8819
G01 F60.00
G01 Z-0.3000
G01 F200.00
G01 X6.6058 Y37.8687
G01 X6.6113 Y37.8604
G01 X6.6761 Y37.7734
G01 X6.7453 Y37.6966
G01 X6.7594 Y37.6825
G01 X6.8362 Y37.6133
G01 X6.9192 Y37.5515
G01 X6.9357 Y37.5404
G01 X7.0245 Y37.4874
G01 X7.1270 Y37.4390
G01 X7.2243 Y37.4039
G01 X7.2434 Y37.3981
G01 X7.3438 Y37.3732
G01 X7.4461 Y37.3578
G01 X7.4659 Y37.3558
G01 X7.5642 Y37.3511
G01 X7.5792 Y37.3512
G01 X7.6824 Y37.3566
G01 X7.7946 Y37.3732
G01 X7.9046 Y37.4008
G01 X8.0114 Y37.4390
G01 X8.1139 Y37.4874
G01 X8.2111 Y37.5457
G01 X8.3022 Y37.6133
G01 X8.3790 Y37.6825
G01 X8.3902 Y37.6936
G01 X13.2506 Y37.6936
G01 X13.2588 Y37.6854
G01 X13.2588 Y25.8146
G01 X13.2477 Y25.8034
G01 X13.1785 Y25.7266
G01 X13.1109 Y25.6355
G01 X13.0526 Y25.5383
G01 X13.0042 Y25.4358
G01 X12.9660 Y25.3290
G01 X12.9384 Y25.2190
G01 X12.9218 Y25.1068
G01 X12.9164 Y25.0036
G01 X12.9164 Y24.9836
G01 X12.9218 Y24.8804
G01 X12.9384 Y24.7682
G01 X12.9660 Y24.6582
G01 X13.0006 Y24.5607
G01 X13.0082 Y24.5423
G01 X13.0482 Y24.4578
G01 X13.0575 Y24.4403
G01 X13.1109 Y24.3517
G01 X13.1785 Y24.2606
G01 X13.2546 Y24.1766
G01 X13.3311 Y24.1070
G01 X13.3465 Y24.0943
G01 X13.4216 Y24.0387
G01 X13.4381 Y24.0276
G01 X13.5269 Y23.9746
G01 X13.6294 Y23.9262
G01 X13.7362 Y23.8880
G01 X13.8462 Y23.8604
G01 X13.9584 Y23.8438
G01 X14.0716 Y23.8382
G01 X14.1848 Y23.8438
G01 X14.2872 Y23.8587
G01 X14.3067 Y23.8626
G01 X14.4070 Y23.8880
G01 X14.5045 Y23.9226
G01 X14.5229 Y23.9302
G01 X14.6163 Y23.9746
G01 X14.7051 Y24.0276
G01 X14.7216 Y24.0387
G01 X14.7967 Y24.0943
G01 X14.8121 Y24.1070
G01 X14.8886 Y24.1766
G01 X14.9647 Y24.2606
G01 X15.0323 Y24.3517
G01 X15.0906 Y24.4489
G01 X15.1390 Y24.5514
G01 X15.1772 Y24.6582
G01 X15.2048 Y24.7682
G01 X15.2202 Y24.8705
G01 X15.2219 Y24.8853
G01 X15.2270 Y24.9936
G01 X15.2222 Y25.0969
G01 X15.2202 Y25.1167
G01 X15.2065 Y25.2092
G01 X15.2026 Y25.2287
G01 X15.1772 Y25.3290
G01 X15.1426 Y25.4265
G01 X15.1350 Y25.4449
G01 X15.0906 Y25.5383
G01 X15.0323 Y25.6355
G01 X14.9647 Y25.7266
G01 X14.8955 Y25.8034
G01 X14.8844 Y25.8146
G01 X14.8844 Y37.2841
G01 X17.5831 Y36.1660
G01 X19.2562 Y35.4647
G01 X19.4019 Y8.3296
G01 X19.3641 Y8.3069
G01 X19.3516 Y8.2988
G01 X19.2371 Y8.2139
G01 X19.2257 Y8.2043
G01 X19.1276 Y8.1153
G01 X19.1169 Y8.1049
G01 X19.0180 Y7.9955
G01 X18.9329 Y7.8813
G01 X18.9219 Y7.8647
G01 X18.8538 Y7.7511
G01 X18.8466 Y7.7380
G01 X18.7837 Y7.6047
G01 X18.7355 Y7.4706
G01 X18.7297 Y7.4516
G01 X18.6953 Y7.3134
G01 X18.6742 Y7.1725
G01 X18.6723 Y7.1527
G01 X18.6655 Y7.0104
G01 X18.6723 Y6.8681
G01 X18.6742 Y6.8483
G01 X18.6953 Y6.7074
G01 X18.7297 Y6.5692
G01 X18.7355 Y6.5502
G01 X18.7801 Y6.4254
G01 X18.7877 Y6.4070
G01 X18.8489 Y6.2784
G01 X18.9219 Y6.1561
G01 X18.9329 Y6.1395
G01 X19.0180 Y6.0253
G01 X19.1203 Y5.9123
G01 X19.2333 Y5.8100
G01 X19.3475 Y5.7249
G01 X19.3641 Y5.7139
G01 X19.4777 Y5.6458
G01 X19.4953 Y5.6364
G01 X19.6241 Y5.5757
G01 X19.7582 Y5.5275
G01 X19.7772 Y5.5217
G01 X19.9154 Y5.4873
G01 X20.0662 Y5.4650
G01 X20.2084 Y5.4577
G01 X20.2284 Y5.4577
G01 X20.3706 Y5.4650
G01 X20.5115 Y5.4856
G01 X20.5311 Y5.4895
G01 X20.6692 Y5.5244
G01 X20.8034 Y5.5721
G01 X20.8172 Y5.5777
G01 X20.9504 Y5.6409
G01 X21.0727 Y5.7139
G01 X21.0893 Y5.7249
G01 X21.2035 Y5.8100
G01 X21.3092 Y5.9055
G01 X21.3233 Y5.9196
G01 X21.4188 Y6.0253
G01 X21.5096 Y6.1477
G01 X21.5830 Y6.2697
G01 X21.5924 Y6.2873
G01 X21.6531 Y6.4161
G01 X21.7044 Y6.5596
G01 X21.7393 Y6.6977
G01 X21.7432 Y6.7173
G01 X21.7638 Y6.8582
G01 X21.7713 Y7.0104
G01 X21.7645 Y7.1527
G01 X21.7626 Y7.1725
G01 X21.7415 Y7.3134
G01 X21.7071 Y7.4516
G01 X21.7013 Y7.4706
G01 X21.6531 Y7.6047
G01 X21.5924 Y7.7335
G01 X21.5855 Y7.7468
G01 X21.5149 Y7.8647
G01 X21.5039 Y7.8813
G01 X21.4188 Y7.9955
G01 X21.3199 Y8.1049
G01 X21.3092 Y8.1153
G01 X21.2111 Y8.2043
G01 X21.1997 Y8.2139
G01 X21.0852 Y8.2988
G01 X21.0727 Y8.3069
G01 X21.0275 Y8.3340
G01 X20.8832 Y35.2044
G01 X36.0934 Y35.2044
G01 X36.1409 Y35.2058
G01 X36.1780 Y35.2089
G01 X36.1966 Y35.2116
G01 X36.2202 Y35.2144
G01 X36.2471 Y35.2191
G01 X36.2935 Y35.2295
G01 X36.3293 Y35.2394
G01 X36.3518 Y35.2472
G01 X36.3697 Y35.2529
G01 X36.3791 Y35.2563
G01 X36.4044 Y35.2663
G01 X36.4260 Y35.2762
G01 X36.4433 Y35.2836
G01 X36.4766 Y35.3004
G01 X36.5178 Y35.3240
G01 X36.5491 Y35.3442
G01 X36.5642 Y35.3553
G01 X36.5837 Y35.3689
G01 X36.6051 Y35.3858
G01 X36.6412 Y35.4168
G01 X36.6681 Y35.4425
G01 X36.6843 Y35.4599
G01 X36.6974 Y35.4734
G01 X36.7040 Y35.4808
G01 X36.7217 Y35.5016
G01 X36.7361 Y35.5205
G01 X36.7478 Y35.5352
G01 X36.7664 Y35.5615
G01 X36.7919 Y35.6017
G01 X36.8102 Y35.6340
G01 X36.8314 Y35.6766
G01 X36.8462 Y35.7108
G01 X36.8526 Y35.7285
G01 X36.8612 Y35.7506
G01 X36.8697 Y35.7765
G01 X36.8726 Y35.7860
G01 X36.8772 Y35.8043
G01 X36.8837 Y35.8271
G01 X37.3663 Y37.8337
G01 X37.3811 Y37.9121
G01 X37.3875 Y37.9816
G01 X37.3883 Y38.0015
G01 X37.3878 Y38.0614
G01 X37.3870 Y38.0765
G01 X37.4282 Y38.1012
G01 X37.4407 Y38.1093
G01 X37.5148 Y38.1642
G01 X37.5265 Y38.1736
G01 X37.6021 Y38.2423
G01 X37.6675 Y38.3142
G01 X37.6772 Y38.3256
G01 X37.7379 Y38.4078
G01 X37.7930 Y38.4997
G01 X37.8388 Y38.5965
G01 X37.8718 Y38.6880
G01 X37.8763 Y38.7022
G01 X37.9009 Y38.8014
G01 X37.9154 Y38.8975
G01 X37.9174 Y38.9173
G01 X37.9219 Y39.0144
G01 X37.9174 Y39.1115
G01 X37.9154 Y39.1313
G01 X37.9009 Y39.2274
G01 X37.8749 Y39.3314
G01 X37.8424 Y39.4230
G01 X37.8347 Y39.4414
G01 X37.7930 Y39.5291
G01 X37.7432 Y39.6126
G01 X37.7321 Y39.6292
G01 X37.6740 Y39.7071
G01 X37.6090 Y39.7793
G01 X37.5949 Y39.7934
G01 X37.5227 Y39.8584
G01 X37.4448 Y39.9165
G01 X37.4282 Y39.9276
G01 X37.3447 Y39.9774
G01 X37.2570 Y40.0191
G01 X37.2386 Y40.0268
G01 X37.1470 Y40.0593
G01 X37.0527 Y40.0831
G01 X37.0332 Y40.0870
G01 X36.9370 Y40.1010
G01 X36.8400 Y40.1061
G01 X36.8200 Y40.1061
G01 X36.7230 Y40.1010
G01 X36.6268 Y40.0870
G01 X36.6073 Y40.0831
G01 X36.5130 Y40.0593
G01 X36.4214 Y40.0268
G01 X36.4030 Y40.0191
G01 X36.3153 Y39.9774
G01 X36.2318 Y39.9276
G01 X36.2152 Y39.9165
G01 X36.1373 Y39.8584
G01 X36.0651 Y39.7934
G01 X36.0544 Y39.7829
G01 X35.9860 Y39.7071
G01 X35.9279 Y39.6292
G01 X35.9168 Y39.6126
G01 X35.8670 Y39.5291
G01 X35.8212 Y39.4323
G01 X35.7882 Y39.3408
G01 X35.7825 Y39.3218
G01 X35.7591 Y39.2274
G01 X35.7434 Y39.1214
G01 X35.7381 Y39.0144
G01 X35.7434 Y38.9074
G01 X35.7582 Y38.8063
G01 X35.7613 Y38.7917
G01 X35.7851 Y38.6974
G01 X35.8194 Y38.6012
G01 X35.8253 Y38.5874
G01 X35.8647 Y38.5041
G01 X35.8719 Y38.4910
G01 X35.8907 Y38.4597
G01 X35.8775 Y38.4393
G01 X35.8725 Y38.4308
G01 X35.8424 Y38.3733
G01 X35.8360 Y38.3598
G01 X35.8082 Y38.2904
G01 X35.7870 Y38.2187
G01 X35.4529 Y36.8300
G01 X20.2277 Y36.8300
G01 X18.2085 Y37.6665
G01 X15.3256 Y38.8750
G01 X15.2506 Y38.9022
G01 X15.1846 Y38.9193
G01 X15.1437 Y38.9362
G01 X15.1390 Y38.9486
G01 X15.1350 Y38.9577
G01 X15.0906 Y39.0511
G01 X15.0376 Y39.1399
G01 X15.0265 Y39.1564
G01 X14.9647 Y39.2394
G01 X14.8955 Y39.3162
G01 X14.8814 Y39.3303
G01 X14.8046 Y39.3995
G01 X14.7216 Y39.4613
G01 X14.7051 Y39.4724
G01 X14.6163 Y39.5254
G01 X14.5229 Y39.5698
G01 X14.5045 Y39.5774
G01 X14.4070 Y39.6120
G01 X14.2970 Y39.6396
G01 X14.1947 Y39.6550
G01 X14.1749 Y39.6570
G01 X14.0716 Y39.6618
G01 X13.9683 Y39.6570
G01 X13.9485 Y39.6550
G01 X13.8462 Y39.6396
G01 X13.7362 Y39.6120
G01 X13.6387 Y39.5774
G01 X13.6203 Y39.5698
G01 X13.5269 Y39.5254
G01 X13.4381 Y39.4724
G01 X13.4216 Y39.4613
G01 X13.3386 Y39.3995
G01 X13.2618 Y39.3303
G01 X13.2506 Y39.3192
G01 X8.3902 Y39.3192
G01 X8.3790 Y39.3303
G01 X8.3022 Y39.3995
G01 X8.2192 Y39.4613
G01 X8.2027 Y39.4724
G01 X8.1225 Y39.5205
G01 X8.1050 Y39.5298
G01 X8.0114 Y39.5738
G01 X7.9046 Y39.6120
G01 X7.7946 Y39.6396
G01 X7.6923 Y39.6550
G01 X7.6725 Y39.6570
G01 X7.5692 Y39.6618
G01 X7.4659 Y39.6570
G01 X7.4461 Y39.6550
G01 X7.3536 Y39.6413
G01 X7.3341 Y39.6374
G01 X7.2338 Y39.6120
G01 X7.1270 Y39.5738
G01 X7.0245 Y39.5254
G01 X6.9354 Y39.4722
G01 X5.8928 Y39.6807
G01 X5.8928 Y53.2482
G01 X15.4284 Y53.6710
G01 X15.4979 Y53.6773
G01 X15.5140 Y53.6794
G01 X15.5294 Y53.6692
G01 X15.6054 Y53.6239
G01 X15.6853 Y53.5859
G01 X15.7037 Y53.5783
G01 X15.7871 Y53.5487
G01 X15.8728 Y53.5270
G01 X15.8924 Y53.5231
G01 X15.9799 Y53.5103
G01 X16.0682 Y53.5057
G01 X16.0882 Y53.5057
G01 X16.1765 Y53.5103
G01 X16.2640 Y53.5231
G01 X16.2836 Y53.5270
G01 X16.3693 Y53.5487
G01 X16.4527 Y53.5783
G01 X16.4666 Y53.5838
G01 X16.5510 Y53.6239
G01 X16.6270 Y53.6692
G01 X16.6435 Y53.6803
G01 X16.7144 Y53.7332
G01 X16.7801 Y53.7924
G01 X16.7942 Y53.8065
G01 X16.8534 Y53.8722
G01 X16.9063 Y53.9431
G01 X16.9174 Y53.9596
G01 X16.9627 Y54.0356
G01 X17.0007 Y54.1155
G01 X17.0083 Y54.1339
G01 X17.0379 Y54.2173
G01 X17.0596 Y54.3030
G01 X17.0635 Y54.3226
G01 X17.0763 Y54.4101
G01 X17.0811 Y54.5084
G01 X17.0763 Y54.6067
G01 X17.0618 Y54.7041
G01 X17.0406 Y54.7899
G01 X17.0364 Y54.8043
G01 X17.0048 Y54.8922
G01 X16.9672 Y54.9723
G01 X16.9603 Y54.9855
G01 X16.9174 Y55.0572
G01 X16.9093 Y55.0697
G01 X16.8566 Y55.1407
G01 X16.8502 Y55.1484
G01 X16.8317 Y55.1690
G01 X16.8577 Y55.2432
G01 X16.8765 Y55.3207
G01 X16.8876 Y55.3997
G01 X16.8910 Y55.4744
G01 X16.8714 Y58.2168
G01 X26.8612 Y58.2168
G01 X32.8062 Y54.3599
G01 X32.8752 Y54.3198
G01 X32.9478 Y54.2867
G01 X33.0232 Y54.2609
G01 X33.0948 Y54.2438
G01 X33.1003 Y54.2221
G01 X33.1032 Y54.2125
G01 X33.1313 Y54.1339
G01 X33.1368 Y54.1200
G01 X33.1769 Y54.0356
G01 X33.2248 Y53.9554
G01 X33.2333 Y53.9431
G01 X33.2800 Y53.8800
G01 X33.2927 Y53.8646
G01 X33.3522 Y53.7992
G01 X33.4214 Y53.7364
G01 X33.4330 Y53.7270
G01 X33.4961 Y53.6803
G01 X33.5126 Y53.6692
G01 X33.5886 Y53.6239
G01 X33.6776 Y53.5818
G01 X33.7608 Y53.5518
G01 X33.7799 Y53.5460
G01 X33.8657 Y53.5248
G01 X33.9581 Y53.5109
G01 X33.9730 Y53.5096
G01 X34.0614 Y53.5055
G01 X34.1597 Y53.5103
G01 X34.2571 Y53.5248
G01 X34.3477 Y53.5473
G01 X34.3620 Y53.5518
G01 X34.4452 Y53.5818
G01 X34.5297 Y53.6216
G01 X34.5428 Y53.6288
G01 X34.6144 Y53.6718
G01 X34.6267 Y53.6803
G01 X34.6549 Y53.7011
G01 X34.6675 Y53.6995
G01 X34.6775 Y53.6988
G01 X34.7472 Y53.6956
G01 X52.3748 Y53.6956
G01 X52.4445 Y53.6988
G01 X52.4545 Y53.6995
G01 X52.4671 Y53.7011
G01 X52.4953 Y53.6803
G01 X52.5076 Y53.6718
G01 X52.5835 Y53.6263
G01 X52.5967 Y53.6194
G01 X52.6722 Y53.5838
G01 X52.6861 Y53.5783
G01 X52.7695 Y53.5487
G01 X52.8601 Y53.5258
G01 X52.8748 Y53.5231
G01 X52.9623 Y53.5103
G01 X53.0606 Y53.5055
G01 X53.1589 Y53.5103
G01 X53.2464 Y53.5231
G01 X53.2611 Y53.5258
G01 X53.3517 Y53.5487
G01 X53.4351 Y53.5783
G01 X53.4535 Y53.5859
G01 X53.5334 Y53.6239
G01 X53.6094 Y53.6692
G01 X53.6259 Y53.6803
G01 X53.6890 Y53.7270
G01 X53.7044 Y53.7397
G01 X53.7698 Y53.7992
G01 X53.8358 Y53.8722
G01 X53.8945 Y53.9512
G01 X53.9427 Y54.0313
G01 X53.9496 Y54.0445
G01 X53.9831 Y54.1155
G01 X53.9907 Y54.1339
G01 X54.0203 Y54.2173
G01 X54.0442 Y54.3127
G01 X54.0587 Y54.4101
G01 X54.0633 Y54.4984
G01 X54.0633 Y54.5184
G01 X54.0594 Y54.5968
G01 X54.0581 Y54.6117
G01 X54.0561 Y54.6260
G01 X54.0624 Y54.6348
G01 X54.0678 Y54.6432
G01 X54.1041 Y54.7029
G01 X56.7965 Y59.6305
G01 X56.8076 Y59.6516
G01 X56.8292 Y59.6977
G01 X56.8402 Y59.7244
G01 X56.8573 Y59.7724
G01 X56.8642 Y59.7952
G01 X56.8778 Y59.8494
G01 X56.8825 Y59.8729
G01 X56.8913 Y59.9331
G01 X56.8935 Y59.9569
G01 X56.8960 Y60.0127
G01 X56.8549 Y62.9464
G01 X56.8867 Y62.9655
G01 X56.8992 Y62.9736
G01 X57.0097 Y63.0555
G01 X57.0214 Y63.0648
G01 X57.1305 Y63.1639
G01 X57.2263 Y63.2693
G01 X57.2359 Y63.2807
G01 X57.3236 Y63.3993
G01 X57.4019 Y63.5300
G01 X57.4671 Y63.6677
G01 X57.5153 Y63.8018
G01 X57.5198 Y63.8160
G01 X57.5555 Y63.9590
G01 X57.5778 Y64.1098
G01 X57.5853 Y64.2620
G01 X57.5778 Y64.4142
G01 X57.5555 Y64.5650
G01 X57.5184 Y64.7128
G01 X57.4671 Y64.8563
G01 X57.4019 Y64.9940
G01 X57.3289 Y65.1163
G01 X57.3179 Y65.1329
G01 X57.2328 Y65.2471
G01 X57.1373 Y65.3528
G01 X57.1232 Y65.3669
G01 X57.0175 Y65.4624
G01 X56.9033 Y65.5475
G01 X56.8867 Y65.5585
G01 X56.7644 Y65.6315
G01 X56.6358 Y65.6927
G01 X56.6174 Y65.7003
G01 X56.4832 Y65.7480
G01 X56.3451 Y65.7829
G01 X56.3255 Y65.7868
G01 X56.1846 Y65.8074
G01 X56.0324 Y65.8149
G01 X55.8802 Y65.8074
G01 X55.7393 Y65.7868
G01 X55.7197 Y65.7829
G01 X55.5816 Y65.7480
G01 X55.4474 Y65.7003
G01 X55.4290 Y65.6927
G01 X55.3004 Y65.6315
G01 X55.1781 Y65.5585
G01 X55.1615 Y65.5475
G01 X55.0473 Y65.4624
G01 X54.9416 Y65.3669
G01 X54.9275 Y65.3528
G01 X54.8320 Y65.2471
G01 X54.7469 Y65.1329
G01 X54.7359 Y65.1163
G01 X54.6678 Y65.0027
G01 X54.6606 Y64.9896
G01 X54.5977 Y64.8563
G01 X54.5464 Y64.7128
G01 X54.5093 Y64.5650
G01 X54.4870 Y64.4142
G01 X54.4795 Y64.2620
G01 X54.4870 Y64.1098
G01 X54.5093 Y63.9590
G01 X54.5450 Y63.8160
G01 X54.5495 Y63.8018
G01 X54.5977 Y63.6677
G01 X54.6629 Y63.5300
G01 X54.7412 Y63.3993
G01 X54.8289 Y63.2807
G01 X54.8385 Y63.2693
G01 X54.9343 Y63.1639
G01 X55.0434 Y63.0648
G01 X55.0551 Y63.0555
G01 X55.1656 Y62.9736
G01 X55.1781 Y62.9655
G01 X55.2293 Y62.9348
G01 X55.2675 Y60.2224
G01 X52.6775 Y55.4823
G01 X52.6478 Y55.4215
G01 X52.5923 Y55.3952
G01 X52.5792 Y55.3880
G01 X52.5076 Y55.3450
G01 X52.4953 Y55.3365
G01 X52.4671 Y55.3157
G01 X52.4545 Y55.3173
G01 X52.4445 Y55.3180
G01 X52.3748 Y55.3212
G01 X34.7472 Y55.3212
G01 X34.6775 Y55.3180
G01 X34.6675 Y55.3173
G01 X34.6549 Y55.3157
G01 X34.6267 Y55.3365
G01 X34.6144 Y55.3450
G01 X34.5428 Y55.3880
G01 X34.5297 Y55.3952
G01 X34.4452 Y55.4350
G01 X34.3620 Y55.4650
G01 X34.3429 Y55.4708
G01 X34.2571 Y55.4920
G01 X34.1696 Y55.5052
G01 X34.1547 Y55.5069
G01 X34.0714 Y55.5111
G01 X34.0564 Y55.5112
G01 X33.9681 Y55.5069
G01 X33.9532 Y55.5052
G01 X33.9197 Y55.5003
G01 X33.9124 Y55.5105
G01 X33.8699 Y55.5659
G01 X33.8155 Y55.6243
G01 X33.7557 Y55.6770
G01 X33.6910 Y55.7237
G01 X27.5442 Y59.7115
G01 X27.4850 Y59.7464
G01 X27.4708 Y59.7538
G01 X27.4128 Y59.7805
G01 X27.3980 Y59.7865
G01 X27.3377 Y59.8074
G01 X27.3224 Y59.8118
G01 X27.2701 Y59.8246
G01 X27.2446 Y59.8297
G01 X27.1815 Y59.8385
G01 X27.1655 Y59.8399
G01 X27.1018 Y59.8424
G01 X16.0470 Y59.8424
G01 X15.9731 Y59.8385
G01 X15.9575 Y59.8366
G01 X15.8942 Y59.8268
G01 X15.8788 Y59.8234
G01 X15.8169 Y59.8074
G01 X15.8019 Y59.8025
G01 X15.7510 Y59.7841
G01 X15.7418 Y59.7805
G01 X15.7273 Y59.7742
G01 X15.6741 Y59.7487
G01 X15.6559 Y59.7387
G01 X15.6096 Y59.7107
G01 X15.5964 Y59.7022
G01 X15.5450 Y59.6640
G01 X15.5327 Y59.6542
G01 X15.4853 Y59.6112
G01 X15.4740 Y59.6002
G01 X15.4245 Y59.5452
G01 X15.4148 Y59.5328
G01 X15.3770 Y59.4812
G01 X15.3685 Y59.4679
G01 X15.3409 Y59.4214
G01 X15.3310 Y59.4032
G01 X15.3059 Y59.3498
G01 X15.3019 Y59.3406
G01 X15.2961 Y59.3260
G01 X15.2781 Y59.2750
G01 X15.2733 Y59.2600
G01 X15.2578 Y59.1979
G01 X15.2536 Y59.1776
G01 X15.2451 Y59.1192
G01 X15.2434 Y59.1035
G01 X15.2400 Y59.0296
G01 X15.2654 Y55.4678
G01 X15.2691 Y55.3981
G01 X15.2705 Y55.3832
G01 X15.2812 Y55.3142
G01 X15.2864 Y55.2919
G01 X5.0440 Y54.8378
G01 X5.0003 Y54.8347
G01 X4.9646 Y54.8304
G01 X4.9214 Y54.8230
G01 X4.8815 Y54.8139
G01 X4.8652 Y54.8092
G01 X4.8441 Y54.8036
G01 X4.8270 Y54.7978
G01 X4.8146 Y54.7940
G01 X4.7736 Y54.7786
G01 X4.7360 Y54.7622
G01 X4.6968 Y54.7426
G01 X4.6655 Y54.7250
G01 X4.6471 Y54.7131
G01 X4.6326 Y54.7043
G01 X4.5989 Y54.6810
G01 X4.5606 Y54.6509
G01 X4.5509 Y54.6422
G01 X4.5370 Y54.6306
G01 X4.5213 Y54.6154
G01 X4.5088 Y54.6040
G01 X4.4804 Y54.5745
G01 X4.4486 Y54.5375
G01 X4.4408 Y54.5271
G01 X4.4295 Y54.5131
G01 X4.4170 Y54.4951
G01 X4.4070 Y54.4815
G01 X4.3848 Y54.4470
G01 X4.3609 Y54.4045
G01 X4.3553 Y54.3928
G01 X4.3469 Y54.3768
G01 X4.3382 Y54.3567
G01 X4.3310 Y54.3414
G01 X4.3160 Y54.3033
G01 X4.3008 Y54.2570
G01 X4.2976 Y54.2443
G01 X4.2925 Y54.2271
G01 X4.2879 Y54.2057
G01 X4.2838 Y54.1892
G01 X4.2766 Y54.1489
G01 X4.2707 Y54.1005
G01 X4.2700 Y54.0875
G01 X4.2684 Y54.0696
G01 X4.2680 Y54.0477
G01 X4.2673 Y54.0308
G01 X4.2672 Y39.0144
G01 X4.2703 Y38.9455
G01 X4.2717 Y38.9298
G01 X4.2827 Y38.8566
G01 X4.2993 Y38.7889
G01 X4.3053 Y38.7690
G01 X4.3288 Y38.7040
G01 X4.3583 Y38.6409
G01 X4.3681 Y38.6226
G01 X4.4041 Y38.5629
G01 X4.4450 Y38.5073
G01 X4.4582 Y38.4912
G01 X4.5047 Y38.4402
G01 X4.5562 Y38.3931
G01 X4.5722 Y38.3800
G01 X4.6278 Y38.3390
G01 X4.6874 Y38.3029
G01 X4.7057 Y38.2931
G01 X4.7636 Y38.2657
G01 X4.7782 Y38.2599
G01 X4.8433 Y38.2368
G01 X4.8537 Y38.2339
G01 X4.9206 Y38.2174
G01 X6.5978 Y37.8819
G00 Z2.0000
G00 X6.4140 Y25.0036
G01 F60.00
G01 Z-0.3000
G01 F200.00
G01 X6.4140 Y24.9836
G01 X6.4194 Y24.8804
G01 X6.4360 Y24.7682
G01 X6.4636 Y24.6582
G01 X6.5018 Y24.5514
G01 X6.5502 Y24.4489
G01 X6.6085 Y24.3517
G01 X6.6761 Y24.2606
G01 X6.7522 Y24.1766
G01 X6.8362 Y24.1005
G01 X6.9273 Y24.0329
G01 X7.0245 Y23.9746
G01 X7.1270 Y23.9262
G01 X7.2338 Y23.8880
G01 X7.3438 Y23.8604
G01 X7.4560 Y23.8438
G01 X7.5692 Y23.8382
G01 X7.6824 Y23.8438
G01 X7.7946 Y23.8604
G01 X7.9046 Y23.8880
G01 X8.0114 Y23.9262
G01 X8.1139 Y23.9746
G01 X8.2111 Y24.0329
G01 X8.3022 Y24.1005
G01 X8.3862 Y24.1766
G01 X8.4623 Y24.2606
G01 X8.5299 Y24.3517
G01 X8.5882 Y24.4489
G01 X8.6366 Y24.5514
G01 X8.6748 Y24.6582
G01 X8.7024 Y24.7682
G01 X8.7190 Y24.8804
G01 X8.7246 Y24.9936
G01 X8.7190 Y25.1068
G01 X8.7024 Y25.2190
G01 X8.6748 Y25.3290
G01 X8.6366 Y25.4358
G01 X8.5882 Y25.5383
G01 X8.5299 Y25.6355
G01 X8.4623 Y25.7266
G01 X8.3862 Y25.8106
G01 X8.3022 Y25.8867
G01 X8.2111 Y25.9543
G01 X8.1139 Y26.0126
G01 X8.0114 Y26.0610
G01 X7.9046 Y26.0992
G01 X7.7946 Y26.1268
G01 X7.6824 Y26.1434
G01 X7.5692 Y26.1490
G01 X7.4560 Y26.1434
G01 X7.3438 Y26.1268
G01 X7.2338 Y26.0992
G01 X7.1270 Y26.0610
G01 X7.0245 Y26.0126
G01 X6.9273 Y25.9543
G01 X6.8362 Y25.8867
G01 X6.7522 Y25.8106
G01 X6.6761 Y25.7266
G01 X6.6085 Y25.6355
G01 X6.5502 Y25.5383
G01 X6.5018 Y25.4358
G01 X6.4636 Y25.3290
G01 X6.4360 Y25.2190
G01 X6.4194 Y25.1068
G01 X6.4140 Y25.0036
G00 Z2.0000
G00 X6.4140 Y20.5078
G01 F60.00
G01 Z-0.3000
G01 F200.00
G01 X6.4140 Y20.4878
G01 X6.4194 Y20.3846
G01 X6.4360 Y20.2724
G01 X6.4636 Y20.1624
G01 X6.5018 Y20.0556
G01 X6.5502 Y19.9531
G01 X6.6085 Y19.8559
G01 X6.6761 Y19.7648
G01 X6.7522 Y19.6808
G01 X6.8362 Y19.6047
G01 X6.9273 Y19.5371
G01 X7.0245 Y19.4788
G01 X7.1270 Y19.4304
G01 X7.2338 Y19.3922
G01 X7.3438 Y19.3646
G01 X7.4560 Y19.3480
G01 X7.5692 Y19.3424
G01 X7.6824 Y19.3480
G01 X7.7946 Y19.3646
G01 X7.9046 Y19.3922
G01 X8.0114 Y19.4304
G01 X8.1139 Y19.4788
G01 X8.2111 Y19.5371
G01 X8.3022 Y19.6047
G01 X8.3862 Y19.6808
G01 X8.4623 Y19.7648
G01 X8.5299 Y19.8559
G01 X8.5882 Y19.9531
G01 X8.6366 Y20.0556
G01 X8.6748 Y20.1624
G01 X8.7024 Y20.2724
G01 X8.7190 Y20.3846
G01 X8.7246 Y20.4978
G01 X8.7190 Y20.6110
G01 X8.7024 Y20.7232
G01 X8.6748 Y20.8332
G01 X8.6366 Y20.9400
G01 X8.5882 Y21.0425
G01 X8.5299 Y21.1397
G01 X8.4623 Y21.2308
G01 X8.3862 Y21.3148
G01 X8.3022 Y21.3909
G01 X8.2111 Y21.4585
G01 X8.1139 Y21.5168
G01 X8.0114 Y21.5652
