(G-CODE GENERATED BY FLATCAM v8.994 - www.flatcam.org - Version Date: 2020/11/7)

(Name: VacHoseSwitchingBox_PCB_drill.txt_cnc)
(Type: G-code from Geometry)
(Units: MM)

(Created on Saturday, 05 June 2021 at 14:30)

(This preprocessor is the default preprocessor used by FlatCAM.)
(It is made to work with MACH3 compatible motion controllers.)


(TOOLS DIAMETER: )
(Tool: 1 -> Dia: 3.1999936)
(Tool: 2 -> Dia: 0.8000237999999998)
(Tool: 3 -> Dia: 1.0731753999999998)
(Tool: 4 -> Dia: 0.889)
(Tool: 5 -> Dia: 0.9143999999999999)
(Tool: 6 -> Dia: 0.6999985999999999)

(FEEDRATE Z: )
(Tool: 1 -> Feedrate: 180.0)
(Tool: 2 -> Feedrate: 180.0)
(Tool: 3 -> Feedrate: 180.0)
(Tool: 4 -> Feedrate: 180.0)
(Tool: 5 -> Feedrate: 180.0)
(Tool: 6 -> Feedrate: 180.0)

(FEEDRATE RAPIDS: )
(Tool: 1 -> Feedrate Rapids: 1500)
(Tool: 2 -> Feedrate Rapids: 1500)
(Tool: 3 -> Feedrate Rapids: 1500)
(Tool: 4 -> Feedrate Rapids: 1500)
(Tool: 5 -> Feedrate Rapids: 1500)
(Tool: 6 -> Feedrate Rapids: 1500)

(Z_CUT: )
(Tool: 1 -> Z_Cut: -1.8)
(Tool: 2 -> Z_Cut: -1.8)
(Tool: 3 -> Z_Cut: -1.8)
(Tool: 4 -> Z_Cut: -1.8)
(Tool: 5 -> Z_Cut: -1.8)
(Tool: 6 -> Z_Cut: -1.8)

(Tools Offset: )
(Tool: 1 -> Offset Z: 0.0)
(Tool: 2 -> Offset Z: 0.0)
(Tool: 3 -> Offset Z: 0.0)
(Tool: 4 -> Offset Z: 0.0)
(Tool: 5 -> Offset Z: 0.0)
(Tool: 6 -> Offset Z: 0.0)

(Z_MOVE: )
(Tool: 1 -> Z_Move: 2)
(Tool: 2 -> Z_Move: 2)
(Tool: 3 -> Z_Move: 2)
(Tool: 4 -> Z_Move: 2)
(Tool: 5 -> Z_Move: 2)
(Tool: 6 -> Z_Move: 2)

(Z Toolchange: 15 mm)
(X,Y Toolchange: 0.0000, 0.0000 mm)
(Z Start: None mm)
(Z End: 0.5 mm)
(X,Y End: None mm)
(Steps per circle: 64)
(Preprocessor Excellon: default)

(X range:    3.4698 ...   66.6697  mm)
(Y range:    3.4038 ...   66.6037  mm)

(Spindle Speed: 10000 RPM)
G21
G90
G94

G01 F180.00

M5
G00 Z15.0000
T1
G00 X0.0000 Y0.0000                
M6
(MSG, Change to Tool Dia = 3.2000 ||| Total drills for tool T1 = 96)
M0
G00 Z15.0000

G01 F180.00
M03 S10000
G00 X5.0698 Y5.0038
G01 Z-1.8000
G01 Z0
G00 Z2.0000
G00 X12.2936 Y7.0028
G01 Z-1.8000
G01 Z0
G00 Z2.0000
G00 X16.2560 Y7.2568
G01 Z-1.8000
G01 Z0
G00 Z2.0000
G00 X20.2184 Y7.0028
G01 Z-1.8000
G01 Z0
G00 Z2.0000
G00 X24.1808 Y7.2568
G01 Z-1.8000
G01 Z0
G00 Z2.0000
G00 X28.1432 Y7.0028
G01 Z-1.8000
G01 Z0
G00 Z2.0000
G00 X32.1056 Y7.2568
G01 Z-1.8000
G01 Z0
G00 Z2.0000
G00 X36.0680 Y7.0028
G01 Z-1.8000
G01 Z0
G00 Z2.0000
G00 X40.0304 Y7.2568
G01 Z-1.8000
G01 Z0
G00 Z2.0000
G00 X42.0700 Y11.0033
G01 Z-1.8000
G01 Z0
G00 Z2.0000
G00 X43.0682 Y16.0045
G01 Z-1.8000
G01 Z0
G00 Z2.0000
G00 X46.9900 Y16.0045
G01 Z-1.8000
G01 Z0
G00 Z2.0000
G00 X49.5300 Y16.0045
G01 Z-1.8000
G01 Z0
G00 Z2.0000
G00 X50.0685 Y7.0028
G01 Z-1.8000
G01 Z0
G00 Z2.0000
G00 X54.0309 Y7.2568
G01 Z-1.8000
G01 Z0
G00 Z2.0000
G00 X65.0697 Y5.0038
G01 Z-1.8000
G01 Z0
G00 Z2.0000
G00 X60.2285 Y19.0043
G01 Z-1.8000
G01 Z0
G00 Z2.0000
G00 X52.0700 Y16.0045
G01 Z-1.8000
G01 Z0
G00 Z2.0000
G00 X50.0685 Y19.0043
G01 Z-1.8000
G01 Z0
G00 Z2.0000
G00 X49.5300 Y23.7642
G01 Z-1.8000
G01 Z0
G00 Z2.0000
G00 X52.0700 Y23.7642
G01 Z-1.8000
G01 Z0
G00 Z2.0000
G00 X54.6100 Y23.7642
G01 Z-1.8000
G01 Z0
G00 Z2.0000
G00 X57.1500 Y23.7642
G01 Z-1.8000
G01 Z0
G00 Z2.0000
G00 X59.6900 Y23.7642
G01 Z-1.8000
G01 Z0
G00 Z2.0000
G00 X62.2300 Y23.7642
G01 Z-1.8000
G01 Z0
G00 Z2.0000
G00 X64.7700 Y23.7642
G01 Z-1.8000
G01 Z0
G00 Z2.0000
G00 X60.0685 Y34.0030
G01 Z-1.8000
G01 Z0
G00 Z2.0000
G00 X64.7700 Y39.0042
G01 Z-1.8000
G01 Z0
G00 Z2.0000
G00 X62.2300 Y39.0042
G01 Z-1.8000
G01 Z0
G00 Z2.0000
G00 X59.6900 Y39.0042
G01 Z-1.8000
G01 Z0
G00 Z2.0000
G00 X60.0685 Y42.8447
G01 Z-1.8000
G01 Z0
G00 Z2.0000
G00 X60.0685 Y53.0047
G01 Z-1.8000
G01 Z0
G00 Z2.0000
G00 X65.0697 Y65.0037
G01 Z-1.8000
G01 Z0
G00 Z2.0000
G00 X56.0324 Y64.2569
G01 Z-1.8000
G01 Z0
G00 Z2.0000
G00 X52.0700 Y64.0029
G01 Z-1.8000
G01 Z0
G00 Z2.0000
G00 X53.0682 Y54.5033
G01 Z-1.8000
G01 Z0
G00 Z2.0000
G00 X53.0682 Y52.0040
G01 Z-1.8000
G01 Z0
G00 Z2.0000
G00 X54.0690 Y46.0045
G01 Z-1.8000
G01 Z0
G00 Z2.0000
G00 X57.1500 Y39.0042
G01 Z-1.8000
G01 Z0
G00 Z2.0000
G00 X54.6100 Y39.0042
G01 Z-1.8000
G01 Z0
G00 Z2.0000
G00 X52.0700 Y39.0042
G01 Z-1.8000
G01 Z0
G00 Z2.0000
G00 X49.5300 Y39.0042
G01 Z-1.8000
G01 Z0
G00 Z2.0000
G00 X46.9900 Y39.0042
G01 Z-1.8000
G01 Z0
G00 Z2.0000
G00 X44.4500 Y39.0042
G01 Z-1.8000
G01 Z0
G00 Z2.0000
G00 X44.2290 Y48.0035
G01 Z-1.8000
G01 Z0
G00 Z2.0000
G00 X40.0685 Y51.8439
G01 Z-1.8000
G01 Z0
G00 Z2.0000
G00 X40.0685 Y62.0039
G01 Z-1.8000
G01 Z0
G00 Z2.0000
G00 X34.0690 Y54.5033
G01 Z-1.8000
G01 Z0
G00 Z2.0000
G00 X34.0690 Y52.0040
G01 Z-1.8000
G01 Z0
G00 Z2.0000
G00 X34.0690 Y48.0035
G01 Z-1.8000
G01 Z0
G00 Z2.0000
G00 X29.0703 Y46.0045
G01 Z-1.8000
G01 Z0
G00 Z2.0000
G00 X23.0683 Y45.8445
G01 Z-1.8000
G01 Z0
G00 Z2.0000
G00 X23.0683 Y56.0045
G01 Z-1.8000
G01 Z0
G00 Z2.0000
G00 X16.0680 Y52.0040
G01 Z-1.8000
G01 Z0
G00 Z2.0000
G00 X16.0680 Y54.5033
G01 Z-1.8000
G01 Z0
G00 Z2.0000
G00 X5.0698 Y65.0037
G01 Z-1.8000
G01 Z0
G00 Z2.0000
G00 X7.5692 Y43.0047
G01 Z-1.8000
G01 Z0
G00 Z2.0000
G00 X7.5692 Y38.5039
G01 Z-1.8000
G01 Z0
G00 Z2.0000
G00 X14.0691 Y38.5039
G01 Z-1.8000
G01 Z0
G00 Z2.0000
G00 X14.0691 Y43.0047
G01 Z-1.8000
G01 Z0
G00 Z2.0000
G00 X17.0688 Y44.0030
G01 Z-1.8000
G01 Z0
G00 Z2.0000
G00 X19.0703 Y40.0025
G01 Z-1.8000
G01 Z0
G00 Z2.0000
G00 X17.0688 Y33.0022
G01 Z-1.8000
G01 Z0
G00 Z2.0000
G00 X26.7818 Y33.9166
G01 Z-1.8000
G01 Z0
G00 Z2.0000
G00 X26.7818 Y31.3766
G01 Z-1.8000
G01 Z0
G00 Z2.0000
G00 X26.7818 Y28.8315
G01 Z-1.8000
G01 Z0
G00 Z2.0000
G00 X29.3218 Y28.8315
G01 Z-1.8000
G01 Z0
G00 Z2.0000
G00 X29.3218 Y31.3766
G01 Z-1.8000
G01 Z0
G00 Z2.0000
G00 X29.3218 Y33.9166
G01 Z-1.8000
G01 Z0
G00 Z2.0000
G00 X29.2100 Y39.0042
G01 Z-1.8000
G01 Z0
G00 Z2.0000
G00 X31.7500 Y39.0042
G01 Z-1.8000
G01 Z0
G00 Z2.0000
G00 X34.2900 Y39.0042
G01 Z-1.8000
G01 Z0
G00 Z2.0000
G00 X36.8300 Y39.0042
G01 Z-1.8000
G01 Z0
G00 Z2.0000
G00 X39.3700 Y39.0042
G01 Z-1.8000
G01 Z0
G00 Z2.0000
G00 X41.9100 Y39.0042
G01 Z-1.8000
G01 Z0
G00 Z2.0000
G00 X38.0695 Y30.0025
G01 Z-1.8000
G01 Z0
G00 Z2.0000
G00 X42.0700 Y30.0025
G01 Z-1.8000
G01 Z0
G00 Z2.0000
G00 X47.0687 Y30.0025
G01 Z-1.8000
G01 Z0
G00 Z2.0000
G00 X46.9900 Y23.7642
G01 Z-1.8000
G01 Z0
G00 Z2.0000
G00 X44.4500 Y23.7642
G01 Z-1.8000
G01 Z0
G00 Z2.0000
G00 X41.9100 Y23.7642
G01 Z-1.8000
G01 Z0
G00 Z2.0000
G00 X39.3700 Y23.7642
G01 Z-1.8000
G01 Z0
G00 Z2.0000
G00 X36.8300 Y23.7642
G01 Z-1.8000
G01 Z0
G00 Z2.0000
G00 X34.2900 Y23.7642
G01 Z-1.8000
G01 Z0
G00 Z2.0000
G00 X31.7500 Y23.7642
G01 Z-1.8000
G01 Z0
G00 Z2.0000
G00 X29.2100 Y23.7642
G01 Z-1.8000
G01 Z0
G00 Z2.0000
G00 X29.0703 Y20.0025
G01 Z-1.8000
G01 Z0
G00 Z2.0000
G00 X33.0683 Y16.0045
G01 Z-1.8000
G01 Z0
G00 Z2.0000
G00 X35.6083 Y16.0045
G01 Z-1.8000
G01 Z0
G00 Z2.0000
G00 X38.1483 Y16.0045
G01 Z-1.8000
G01 Z0
G00 Z2.0000
G00 X28.0695 Y11.0033
G01 Z-1.8000
G01 Z0
G00 Z2.0000
G00 X18.0696 Y20.0025
G01 Z-1.8000
G01 Z0
G00 Z2.0000
G00 X14.0691 Y20.5029
G01 Z-1.8000
G01 Z0
G00 Z2.0000
G00 X14.0691 Y25.0038
G01 Z-1.8000
G01 Z0
G00 Z2.0000
G00 X7.5692 Y25.0038
G01 Z-1.8000
G01 Z0
G00 Z2.0000
G00 X7.5692 Y20.5029
G01 Z-1.8000
G01 Z0
G00 Z2.0000
M05
G00 Z0.50


