(G-CODE GENERATED BY FLATCAM v8.994 - www.flatcam.org - Version Date: 2020/11/7)

(Name: VacHoseSwitchingBox_PCB_contour.gm1_cutout_cnc)
(Type: G-code from Geometry)
(Units: MM)

(Created on Saturday, 05 June 2021 at 15:10)

(This preprocessor is the default preprocessor used by FlatCAM.)
(It is made to work with MACH3 compatible motion controllers.)

(TOOL DIAMETER: 1.5 mm)
(Feedrate_XY: 400.0 mm/min)
(Feedrate_Z: 120.0 mm/min)
(Feedrate rapids 1500.0 mm/min)

(Z_Cut: -1.8 mm)
(DepthPerCut: 0.6 mm <=>3 passes)
(Z_Move: 2.0 mm)
(Z Start: None mm)
(Z End: 15.0 mm)
(X,Y End: None mm)
(Steps per circle: 64)
(Preprocessor Geometry: default)

(X range:   -0.7500 ...   70.7524  mm)
(Y range:   -0.7500 ...   70.7524  mm)

(Spindle Speed: 10000.0 RPM)
G21
G90
G94

G01 F400.00

M5
G00 Z15.0000
G00 X0.0000 Y0.0000
T1
M6    
(MSG, Change to Tool Dia = 1.5000)
M0
G00 Z15.0000

M03 S10000.0
G01 F400.00
G00 X32.2512 Y-0.7500
G01 F120.00
G01 Z-0.6000
G01 F400.00
G01 X-0.0000 Y-0.7500
G01 X-0.0736 Y-0.7464
G01 X-0.1464 Y-0.7356
G01 X-0.2178 Y-0.7178
G01 X-0.2871 Y-0.6930
G01 X-0.3536 Y-0.6615
G01 X-0.4167 Y-0.6237
G01 X-0.4758 Y-0.5798
G01 X-0.5304 Y-0.5304
G01 X-0.5798 Y-0.4758
G01 X-0.6237 Y-0.4167
G01 X-0.6615 Y-0.3536
G01 X-0.6930 Y-0.2871
G01 X-0.7178 Y-0.2178
G01 X-0.7356 Y-0.1464
G01 X-0.7464 Y-0.0736
G01 X-0.7500 Y-0.0000
G01 X-0.7500 Y32.2512
G00 X-0.7500 Y32.2512
G01 F120.00
G01 Z-1.2000
G01 F400.00
G01 X-0.7500 Y-0.0000
G01 X-0.7464 Y-0.0736
G01 X-0.7356 Y-0.1464
G01 X-0.7178 Y-0.2178
G01 X-0.6930 Y-0.2871
G01 X-0.6615 Y-0.3536
G01 X-0.6237 Y-0.4167
G01 X-0.5798 Y-0.4758
G01 X-0.5304 Y-0.5304
G01 X-0.4758 Y-0.5798
G01 X-0.4167 Y-0.6237
G01 X-0.3536 Y-0.6615
G01 X-0.2871 Y-0.6930
G01 X-0.2178 Y-0.7178
G01 X-0.1464 Y-0.7356
G01 X-0.0736 Y-0.7464
G01 X-0.0000 Y-0.7500
G01 X32.2512 Y-0.7500
G00 X32.2512 Y-0.7500
G01 F120.00
G01 Z-1.8000
G01 F400.00
G01 X-0.0000 Y-0.7500
G01 X-0.0736 Y-0.7464
G01 X-0.1464 Y-0.7356
G01 X-0.2178 Y-0.7178
G01 X-0.2871 Y-0.6930
G01 X-0.3536 Y-0.6615
G01 X-0.4167 Y-0.6237
G01 X-0.4758 Y-0.5798
G01 X-0.5304 Y-0.5304
G01 X-0.5798 Y-0.4758
G01 X-0.6237 Y-0.4167
G01 X-0.6615 Y-0.3536
G01 X-0.6930 Y-0.2871
G01 X-0.7178 Y-0.2178
G01 X-0.7356 Y-0.1464
G01 X-0.7464 Y-0.0736
G01 X-0.7500 Y-0.0000
G01 X-0.7500 Y32.2512
G00 Z2.0000
G00 X-0.7500 Y37.7512
G01 F120.00
G01 Z-0.6000
G01 F400.00
G01 X-0.7500 Y70.0024
G01 X-0.7464 Y70.0760
G01 X-0.7356 Y70.1488
G01 X-0.7178 Y70.2202
G01 X-0.6930 Y70.2895
G01 X-0.6615 Y70.3560
G01 X-0.6237 Y70.4191
G01 X-0.5798 Y70.4782
G01 X-0.5304 Y70.5328
G01 X-0.4758 Y70.5822
G01 X-0.4167 Y70.6261
G01 X-0.3536 Y70.6639
G01 X-0.2871 Y70.6954
G01 X-0.2178 Y70.7202
G01 X-0.1464 Y70.7380
G01 X-0.0736 Y70.7488
G01 X-0.0000 Y70.7524
G01 X32.2512 Y70.7524
G00 X32.2512 Y70.7524
G01 F120.00
G01 Z-1.2000
G01 F400.00
G01 X-0.0000 Y70.7524
G01 X-0.0736 Y70.7488
G01 X-0.1464 Y70.7380
G01 X-0.2178 Y70.7202
G01 X-0.2871 Y70.6954
G01 X-0.3536 Y70.6639
G01 X-0.4167 Y70.6261
G01 X-0.4758 Y70.5822
G01 X-0.5304 Y70.5328
G01 X-0.5798 Y70.4782
G01 X-0.6237 Y70.4191
G01 X-0.6615 Y70.3560
G01 X-0.6930 Y70.2895
G01 X-0.7178 Y70.2202
G01 X-0.7356 Y70.1488
G01 X-0.7464 Y70.0760
G01 X-0.7500 Y70.0024
G01 X-0.7500 Y37.7512
G00 X-0.7500 Y37.7512
G01 F120.00
G01 Z-1.8000
G01 F400.00
G01 X-0.7500 Y70.0024
G01 X-0.7464 Y70.0760
G01 X-0.7356 Y70.1488
G01 X-0.7178 Y70.2202
G01 X-0.6930 Y70.2895
G01 X-0.6615 Y70.3560
G01 X-0.6237 Y70.4191
G01 X-0.5798 Y70.4782
G01 X-0.5304 Y70.5328
G01 X-0.4758 Y70.5822
G01 X-0.4167 Y70.6261
G01 X-0.3536 Y70.6639
G01 X-0.2871 Y70.6954
G01 X-0.2178 Y70.7202
G01 X-0.1464 Y70.7380
G01 X-0.0736 Y70.7488
G01 X-0.0000 Y70.7524
G01 X32.2512 Y70.7524
G00 Z2.0000
G00 X37.7512 Y70.7524
G01 F120.00
G01 Z-0.6000
G01 F400.00
G01 X70.0024 Y70.7524
G01 X70.0760 Y70.7488
G01 X70.1488 Y70.7380
G01 X70.2202 Y70.7202
G01 X70.2895 Y70.6954
G01 X70.3560 Y70.6639
G01 X70.4191 Y70.6261
G01 X70.4782 Y70.5822
G01 X70.5328 Y70.5328
G01 X70.5822 Y70.4782
G01 X70.6261 Y70.4191
G01 X70.6639 Y70.3560
G01 X70.6954 Y70.2895
G01 X70.7202 Y70.2202
G01 X70.7380 Y70.1488
G01 X70.7488 Y70.0760
G01 X70.7524 Y70.0024
G01 X70.7524 Y37.7512
G00 X70.7524 Y37.7512
G01 F120.00
G01 Z-1.2000
G01 F400.00
G01 X70.7524 Y70.0024
G01 X70.7488 Y70.0760
G01 X70.7380 Y70.1488
G01 X70.7202 Y70.2202
G01 X70.6954 Y70.2895
G01 X70.6639 Y70.3560
G01 X70.6261 Y70.4191
G01 X70.5822 Y70.4782
G01 X70.5328 Y70.5328
G01 X70.4782 Y70.5822
G01 X70.4191 Y70.6261
G01 X70.3560 Y70.6639
G01 X70.2895 Y70.6954
G01 X70.2202 Y70.7202
G01 X70.1488 Y70.7380
G01 X70.0760 Y70.7488
G01 X70.0024 Y70.7524
G01 X37.7512 Y70.7524
G00 X37.7512 Y70.7524
G01 F120.00
G01 Z-1.8000
G01 F400.00
G01 X70.0024 Y70.7524
G01 X70.0760 Y70.7488
G01 X70.1488 Y70.7380
G01 X70.2202 Y70.7202
G01 X70.2895 Y70.6954
G01 X70.3560 Y70.6639
G01 X70.4191 Y70.6261
G01 X70.4782 Y70.5822
G01 X70.5328 Y70.5328
G01 X70.5822 Y70.4782
G01 X70.6261 Y70.4191
G01 X70.6639 Y70.3560
G01 X70.6954 Y70.2895
G01 X70.7202 Y70.2202
G01 X70.7380 Y70.1488
G01 X70.7488 Y70.0760
G01 X70.7524 Y70.0024
G01 X70.7524 Y37.7512
G00 Z2.0000
G00 X70.7524 Y32.2512
G01 F120.00
G01 Z-0.6000
G01 F400.00
G01 X70.7524 Y-0.0000
G01 X70.7488 Y-0.0736
G01 X70.7380 Y-0.1464
G01 X70.7202 Y-0.2178
G01 X70.6954 Y-0.2871
G01 X70.6639 Y-0.3536
G01 X70.6261 Y-0.4167
G01 X70.5822 Y-0.4758
G01 X70.5328 Y-0.5304
G01 X70.4782 Y-0.5798
G01 X70.4191 Y-0.6237
G01 X70.3560 Y-0.6615
G01 X70.2895 Y-0.6930
G01 X70.2202 Y-0.7178
G01 X70.1488 Y-0.7356
G01 X70.0760 Y-0.7464
G01 X70.0024 Y-0.7500
G01 X37.7512 Y-0.7500
G00 X37.7512 Y-0.7500
G01 F120.00
G01 Z-1.2000
G01 F400.00
G01 X70.0024 Y-0.7500
G01 X70.0760 Y-0.7464
G01 X70.1488 Y-0.7356
G01 X70.2202 Y-0.7178
G01 X70.2895 Y-0.6930
G01 X70.3560 Y-0.6615
G01 X70.4191 Y-0.6237
G01 X70.4782 Y-0.5798
G01 X70.5328 Y-0.5304
G01 X70.5822 Y-0.4758
G01 X70.6261 Y-0.4167
G01 X70.6639 Y-0.3536
G01 X70.6954 Y-0.2871
G01 X70.7202 Y-0.2178
G01 X70.7380 Y-0.1464
G01 X70.7488 Y-0.0736
G01 X70.7524 Y-0.0000
G01 X70.7524 Y32.2512
G00 X70.7524 Y32.2512
G01 F120.00
G01 Z-1.8000
G01 F400.00
G01 X70.7524 Y-0.0000
G01 X70.7488 Y-0.0736
G01 X70.7380 Y-0.1464
G01 X70.7202 Y-0.2178
G01 X70.6954 Y-0.2871
G01 X70.6639 Y-0.3536
G01 X70.6261 Y-0.4167
G01 X70.5822 Y-0.4758
G01 X70.5328 Y-0.5304
G01 X70.4782 Y-0.5798
G01 X70.4191 Y-0.6237
G01 X70.3560 Y-0.6615
G01 X70.2895 Y-0.6930
G01 X70.2202 Y-0.7178
G01 X70.1488 Y-0.7356
G01 X70.0760 Y-0.7464
G01 X70.0024 Y-0.7500
G01 X37.7512 Y-0.7500
G00 Z2.0000
M05
G00 Z2.0000
G00 Z15.00


